;FLAVOR:Marlin
;TIME:939
;Filament used: 0.524146m
;Layer height: 0.15
;MINX:115.483
;MINY:95.473
;MINZ:0.2
;MAXX:134.527
;MAXY:114.52
;MAXZ:29
;Generated with Cura_SteamEngine 5.3.1
M82 ;absolute extrusion mode
G21 ; set units to millimeters
G90 ; use absolute positioning
M82 ; absolute extrusion mode
M104 S200 ; set extruder temp
M140 S60 ; set bed temp
M190 S60 ; wait for bed temp
M109 S200 ; wait for extruder temp
G28 W ; home all without mesh bed level
G80 ; mesh bed leveling
G92 E0.0 ; reset extruder distance position
G1 Y-3.0 F1000.0 ; go outside print area
G1 X60.0 E9.0 F1000.0 ; intro line
G1 X100.0 E21.5 F1000.0 ; intro line
G92 E0.0 ; reset extruder distance position
G92 E0
G92 E0
G1 F2100 E-0.8
;LAYER_COUNT:193
;LAYER:0
M107
G0 F3600 X118.803 Y100.019 Z0.2
;TYPE:SKIRT
G1 F2100 E0
G1 F1800 X119.333 Y99.441 E0.02608
G1 X119.939 Y98.89 E0.05332
G1 X120.599 Y98.394 E0.08078
G1 X121.029 Y98.126 E0.09764
G1 X121.927 Y97.673 E0.13109
G1 X122.98 Y97.334 E0.16788
G1 X123.549 Y97.207 E0.18727
G1 X124.412 Y97.095 E0.21622
G1 X124.995 Y97.073 E0.23562
G1 X125.854 Y97.119 E0.26423
G1 X126.413 Y97.198 E0.28301
G1 X127.348 Y97.417 E0.31495
G1 X128.053 Y97.661 E0.33976
G1 X128.628 Y97.946 E0.36111
G1 X129.285 Y98.328 E0.38638
G1 X129.721 Y98.632 E0.40406
G1 X130.464 Y99.249 E0.43619
G1 X130.841 Y99.619 E0.45375
G1 X131.388 Y100.288 E0.4825
G1 X131.836 Y100.971 E0.50966
G1 X132.124 Y101.488 E0.52935
G1 X132.528 Y102.458 E0.5643
G1 X132.788 Y103.516 E0.60053
G1 X132.874 Y104.084 E0.61964
G1 X132.927 Y104.952 E0.64856
G1 X132.91 Y105.533 E0.6679
G1 X132.807 Y106.381 E0.69631
G1 X132.682 Y106.957 E0.71591
G1 X132.318 Y108.113 E0.75622
G1 X131.855 Y108.998 E0.78944
G1 X131.42 Y109.667 E0.81598
G1 X131.04 Y110.134 E0.83601
G1 X130.445 Y110.761 E0.86476
G1 X130.006 Y111.146 E0.88418
G1 X129.306 Y111.655 E0.91296
G1 X128.806 Y111.953 E0.93232
G1 X128.031 Y112.324 E0.9609
G1 X127.485 Y112.527 E0.98028
G1 X126.639 Y112.756 E1.00943
G1 X126.066 Y112.856 E1.02877
G1 X125.24 Y112.924 E1.05634
G1 X124.669 Y112.92 E1.07533
G1 X123.8 Y112.836 E1.10437
G1 X123.221 Y112.726 E1.12397
G1 X122.396 Y112.488 E1.15253
G1 X121.849 Y112.274 E1.17207
G1 X121.067 Y111.882 E1.20116
G1 X120.59 Y111.587 E1.21981
G1 X119.928 Y111.094 E1.24727
G1 X119.483 Y110.693 E1.26719
G1 X118.883 Y110.04 E1.29669
G1 X118.527 Y109.574 E1.31619
G1 X118.059 Y108.827 E1.34551
G1 X117.806 Y108.332 E1.364
G1 X117.455 Y107.469 E1.39498
G1 X117.265 Y106.803 E1.41802
G1 X117.093 Y105.772 E1.45278
G1 X117.079 Y104.682 E1.48904
G1 X117.124 Y104.107 E1.50822
G1 X117.267 Y103.262 E1.53673
G1 X117.413 Y102.706 E1.55585
G1 X117.709 Y101.889 E1.58475
G1 X117.952 Y101.371 E1.60378
G1 X118.402 Y100.597 E1.63356
G1 X118.803 Y100.019 E1.65696
G0 F3600 X118.474 Y99.791
G1 F1800 X119.064 Y99.145 E1.68606
G1 X119.699 Y98.57 E1.71455
G1 X120.359 Y98.074 E1.74201
G1 X120.849 Y97.769 E1.7612
G1 X121.804 Y97.292 E1.79671
G1 X122.857 Y96.953 E1.8335
G1 X123.498 Y96.81 E1.85535
G1 X124.397 Y96.695 E1.88549
G1 X124.98 Y96.673 E1.90489
G1 X125.91 Y96.723 E1.93587
G1 X126.469 Y96.802 E1.95465
G1 X127.479 Y97.039 E1.98915
G1 X128.184 Y97.283 E2.01397
G1 X128.829 Y97.6 E2.03787
G1 X129.486 Y97.982 E2.06315
G1 X129.977 Y98.324 E2.08305
G1 X130.72 Y98.941 E2.11517
G1 X131.151 Y99.366 E2.1353
G1 X131.698 Y100.035 E2.16405
G1 X132.185 Y100.776 E2.19354
G1 X132.493 Y101.334 E2.21474
G1 X132.897 Y102.304 E2.24969
G1 X133.183 Y103.456 E2.28916
G1 X133.273 Y104.06 E2.30948
G1 X133.327 Y104.964 E2.3396
G1 X133.31 Y105.545 E2.35893
G1 X133.198 Y106.466 E2.38979
G1 X133.064 Y107.077 E2.41059
G1 X132.691 Y108.262 E2.45191
G1 X132.19 Y109.216 E2.48775
G1 X131.755 Y109.885 E2.51429
G1 X131.33 Y110.409 E2.53673
G1 X130.709 Y111.062 E2.5667
G1 X130.241 Y111.47 E2.58735
G1 X129.511 Y111.999 E2.61734
G1 X128.979 Y112.314 E2.6379
G1 X128.204 Y112.685 E2.66648
G1 X127.59 Y112.913 E2.68826
G1 X126.708 Y113.15 E2.71864
G1 X126.099 Y113.255 E2.7392
G1 X125.273 Y113.323 E2.76676
G1 X124.666 Y113.32 E2.78695
G1 X123.725 Y113.229 E2.81839
G1 X123.146 Y113.119 E2.838
G1 X122.25 Y112.861 E2.86901
G1 X121.703 Y112.647 E2.88854
G1 X120.888 Y112.24 E2.91884
G1 X120.351 Y111.908 E2.93984
G1 X119.689 Y111.415 E2.96729
G1 X119.188 Y110.964 E2.98972
G1 X118.588 Y110.311 E3.01921
G1 X118.209 Y109.817 E3.03992
G1 X117.703 Y109.009 E3.07163
G1 X117.435 Y108.483 E3.09126
G1 X117.084 Y107.62 E3.12225
G1 X116.87 Y106.869 E3.14822
G1 X116.698 Y105.838 E3.18299
G1 X116.68 Y104.651 E3.22247
G1 X116.725 Y104.076 E3.24165
G1 X116.88 Y103.16 E3.27255
G1 X117.026 Y102.604 E3.29167
G1 X117.347 Y101.719 E3.32299
G1 X117.606 Y101.17 E3.34318
G1 X118.073 Y100.369 E3.37401
G1 X118.474 Y99.791 E3.39741
G0 F3600 X118.145 Y99.563
G1 F1800 X118.796 Y98.848 E3.42957
G1 X119.459 Y98.25 E3.45927
G1 X120.148 Y97.734 E3.4879
G1 X120.67 Y97.411 E3.50832
G1 X121.681 Y96.911 E3.54583
G1 X122.734 Y96.572 E3.58262
G1 X123.447 Y96.413 E3.60692
G1 X124.382 Y96.295 E3.63826
G1 X124.965 Y96.273 E3.65767
G1 X125.966 Y96.327 E3.69101
G1 X126.525 Y96.406 E3.70979
G1 X127.61 Y96.661 E3.74686
G1 X128.315 Y96.905 E3.77167
G1 X129.03 Y97.254 E3.79813
G1 X129.687 Y97.636 E3.82341
G1 X130.233 Y98.016 E3.84554
G1 X130.976 Y98.633 E3.87766
G1 X131.432 Y99.081 E3.89892
G1 X132.008 Y99.782 E3.9291
G1 X132.519 Y100.556 E3.95994
G1 X132.862 Y101.18 E3.98363
G1 X133.266 Y102.15 E4.01858
G1 X133.579 Y103.397 E4.06134
G1 X133.669 Y104.001 E4.08165
G1 X133.727 Y104.976 E4.11414
G1 X133.71 Y105.557 E4.13347
G1 X133.589 Y106.552 E4.16681
G1 X133.446 Y107.197 E4.18878
G1 X133.063 Y108.414 E4.23121
G1 X132.544 Y109.402 E4.26833
G1 X132.066 Y110.137 E4.29749
G1 X131.62 Y110.685 E4.32099
G1 X130.972 Y111.364 E4.35221
G1 X130.504 Y111.772 E4.37286
G1 X129.746 Y112.323 E4.40403
G1 X129.152 Y112.675 E4.427
G1 X128.377 Y113.046 E4.45557
G1 X127.729 Y113.288 E4.47858
G1 X126.776 Y113.544 E4.5114
G1 X126.132 Y113.654 E4.53313
G1 X125.306 Y113.722 E4.5607
G1 X124.627 Y113.718 E4.58328
G1 X123.65 Y113.622 E4.61593
G1 X123.071 Y113.512 E4.63553
G1 X122.104 Y113.234 E4.669
G1 X121.557 Y113.02 E4.68854
G1 X120.709 Y112.598 E4.72004
G1 X120.112 Y112.229 E4.74338
G1 X119.45 Y111.736 E4.77084
G1 X118.893 Y111.235 E4.79575
G1 X118.293 Y110.582 E4.82525
G1 X117.87 Y110.029 E4.8484
G1 X117.347 Y109.191 E4.88126
G1 X117.064 Y108.634 E4.90204
G1 X116.713 Y107.771 E4.93303
G1 X116.475 Y106.935 E4.96194
G1 X116.303 Y105.904 E4.9967
G1 X116.281 Y104.62 E5.03941
G1 X116.326 Y104.045 E5.0586
G1 X116.493 Y103.058 E5.09189
G1 X116.639 Y102.502 E5.11101
G1 X116.985 Y101.548 E5.14476
G1 X117.244 Y100.999 E5.16495
G1 X117.744 Y100.141 E5.19798
G1 X118.145 Y99.563 E5.22138
G0 F3600 X117.816 Y99.335
G1 F1800 X118.528 Y98.551 E5.2566
G1 X119.219 Y97.93 E5.2875
G1 X119.908 Y97.414 E5.31613
G1 X120.493 Y97.052 E5.33902
G1 X121.558 Y96.53 E5.37846
G1 X122.611 Y96.191 E5.41526
G1 X123.397 Y96.016 E5.44204
G1 X124.367 Y95.895 E5.47455
G1 X124.95 Y95.873 E5.49396
G1 X126.022 Y95.931 E5.52966
G1 X126.581 Y96.01 E5.54844
G1 X127.741 Y96.283 E5.58808
G1 X128.446 Y96.527 E5.61289
G1 X129.231 Y96.908 E5.64191
G1 X129.888 Y97.29 E5.66719
G1 X130.489 Y97.708 E5.69154
G1 X131.232 Y98.325 E5.72366
G1 X131.741 Y98.827 E5.74744
G1 X132.342 Y99.562 E5.77902
G1 X132.87 Y100.363 E5.81092
G1 X133.213 Y100.987 E5.83461
G1 X133.654 Y102.053 E5.87298
G1 X133.975 Y103.338 E5.91703
G1 X134.065 Y103.942 E5.93734
G1 X134.127 Y104.988 E5.97219
G1 X134.11 Y105.569 E5.99152
G1 X133.98 Y106.639 E6.02737
G1 X133.837 Y107.284 E6.04935
G1 X133.435 Y108.566 E6.09403
G1 X132.898 Y109.588 E6.13243
G1 X132.401 Y110.355 E6.16283
G1 X131.909 Y110.961 E6.18879
G1 X131.235 Y111.666 E6.22123
G1 X130.767 Y112.074 E6.24188
G1 X129.981 Y112.647 E6.27424
G1 X129.325 Y113.036 E6.2996
G1 X128.517 Y113.421 E6.32937
G1 X127.869 Y113.663 E6.35238
G1 X126.88 Y113.93 E6.38645
G1 X126.165 Y114.053 E6.41058
G1 X125.339 Y114.121 E6.43815
G1 X124.588 Y114.116 E6.46312
G1 X123.575 Y114.015 E6.49698
G1 X122.996 Y113.905 E6.51659
G1 X121.958 Y113.607 E6.5525
G1 X121.411 Y113.393 E6.57204
G1 X120.531 Y112.956 E6.60472
G1 X119.873 Y112.55 E6.63044
G1 X119.211 Y112.057 E6.65789
G1 X118.598 Y111.506 E6.6853
G1 X117.998 Y110.853 E6.7148
G1 X117.552 Y110.272 E6.73916
G1 X116.99 Y109.372 E6.77445
G1 X116.693 Y108.785 E6.79633
G1 X116.342 Y107.922 E6.82732
G1 X116.08 Y107.001 E6.85917
G1 X115.908 Y105.97 E6.89393
G1 X115.882 Y104.589 E6.93987
G1 X115.927 Y104.014 E6.95905
G1 X116.106 Y102.956 E6.99474
G1 X116.252 Y102.4 E7.01386
G1 X116.623 Y101.377 E7.05006
G1 X116.882 Y100.828 E7.07025
G1 X117.415 Y99.913 E7.10547
G1 X117.816 Y99.335 E7.12886
G0 F3600 X117.487 Y99.107
G1 F1800 X118.261 Y98.253 E7.1672
G1 X118.952 Y97.632 E7.1981
G1 X119.668 Y97.094 E7.22789
G1 X120.317 Y96.693 E7.25326
G1 X121.435 Y96.149 E7.29461
G1 X122.488 Y95.81 E7.33141
G1 X123.347 Y95.619 E7.36067
G1 X124.352 Y95.495 E7.39435
G1 X124.935 Y95.473 E7.41376
G1 X126.078 Y95.535 E7.45183
G1 X126.637 Y95.614 E7.47061
G1 X127.872 Y95.905 E7.51281
G1 X128.621 Y96.167 E7.5392
G1 X129.406 Y96.548 E7.56822
G1 X130.089 Y96.944 E7.59448
G1 X130.745 Y97.4 E7.62105
G1 X131.488 Y98.017 E7.65318
G1 X132.022 Y98.542 E7.67808
G1 X132.652 Y99.309 E7.7111
G1 X133.221 Y100.17 E7.74542
G1 X133.564 Y100.794 E7.7691
G1 X134.024 Y101.9 E7.80895
G1 X134.371 Y103.279 E7.85624
G1 X134.461 Y103.883 E7.87655
G1 X134.527 Y105 E7.91377
G1 X134.51 Y105.581 E7.9331
G1 X134.371 Y106.726 E7.97146
G1 X134.228 Y107.371 E7.99344
G1 X133.807 Y108.718 E8.04038
G1 X133.234 Y109.806 E8.08127
G1 X132.737 Y110.573 E8.11167
G1 X132.22 Y111.213 E8.13904
G1 X131.498 Y111.968 E8.17378
G1 X131.03 Y112.376 E8.19443
G1 X130.217 Y112.97 E8.22792
G1 X129.497 Y113.397 E8.25576
G1 X128.657 Y113.796 E8.28669
G1 X128.009 Y114.038 E8.3097
G1 X126.948 Y114.324 E8.34625
G1 X126.198 Y114.452 E8.37155
G1 X125.372 Y114.52 E8.39912
G1 X124.548 Y114.514 E8.42653
G1 X123.5 Y114.408 E8.46156
G1 X122.921 Y114.298 E8.48116
G1 X121.812 Y113.98 E8.51954
G1 X121.265 Y113.766 E8.53907
G1 X120.353 Y113.314 E8.57293
G1 X119.634 Y112.871 E8.60101
G1 X118.972 Y112.378 E8.62847
G1 X118.303 Y111.777 E8.65838
G1 X117.703 Y111.124 E8.68787
G1 X117.235 Y110.516 E8.71339
G1 X116.633 Y109.553 E8.75117
G1 X116.322 Y108.936 E8.77415
G1 X115.971 Y108.073 E8.80513
G1 X115.685 Y107.067 E8.83992
G1 X115.513 Y106.036 E8.87468
G1 X115.483 Y104.558 E8.92385
G1 X115.528 Y103.983 E8.94304
G1 X115.719 Y102.854 E8.98112
G1 X115.865 Y102.298 E9.00024
G1 X116.261 Y101.206 E9.03887
G1 X116.52 Y100.657 E9.05906
G1 X117.086 Y99.685 E9.09647
G1 X117.487 Y99.107 E9.11987
G1 F2100 E8.31987
G0 F3600 X125.349 Y104.41
;TYPE:SUPPORT
G1 F2100 E9.11987
G1 F1800 X125.349 Y105.59 E9.15912
G1 F2100 E8.35912
;MESH:Connector V2 95.stl
G0 F3600 X125.349 Y106.65
G0 X128.6 Y106.471
G0 X128.214 Y106.697
;TYPE:WALL-INNER
G1 F2100 E9.15912
G1 F1636.4 X127.804 Y106.848 E9.1751
G1 F1800 X122.132 Y106.85 E9.36376
G1 F1651.4 X121.77 Y106.668 E9.37845
G1 F1551.7 X121.663 Y106.475 E9.38696
G1 F1448.7 X121.594 Y106.197 E9.3988
G1 F1276.6 X121.555 Y105.346 E9.43875
G1 F1220.3 X121.555 Y104.651 E9.47284
G1 F1290.3 X121.598 Y103.705 E9.51678
G1 F1451.6 X121.714 Y103.41 E9.52985
G1 F1662.8 X122.133 Y103.15 E9.54761
G1 F1800 X127.797 Y103.151 E9.73599
G1 F1773.4 X128.191 Y103.333 E9.75065
G1 F1662.8 X128.327 Y103.498 E9.75834
G1 F1522.2 X128.396 Y103.75 E9.76862
G1 F1343.3 X128.44 Y104.491 E9.8017
G1 F1224.5 X128.448 Y105.164 E9.83461
G1 F1267.6 X128.414 Y106.157 E9.88154
G1 F1440 X128.352 Y106.448 E9.89391
G1 F1531.9 X128.214 Y106.697 E9.90503
G0 F3600 X128.6 Y106.471
G0 X121.822 Y106.678
G0 X121.391 Y106.945
G1 F1651.4 X121.661 Y107.46 E9.92611
G1 F1800 X122.165 Y108.025 E9.9513
G1 X122.768 Y108.493 E9.97668
G1 X123.434 Y108.841 E10.00168
G1 X124.155 Y109.059 E10.02673
G1 X124.91 Y109.147 E10.05201
G1 X125.651 Y109.094 E10.07672
G1 X126.388 Y108.907 E10.10201
G1 X127.07 Y108.592 E10.12699
G1 X127.695 Y108.152 E10.15242
G1 X128.215 Y107.62 E10.17716
G1 F1734.9 X128.75 Y106.722 E10.21323
G1 F1472.4 X128.966 Y105.923 E10.24688
G1 F1260.9 X129.044 Y105.177 E10.2825
G1 F1224.5 X129.02 Y104.452 E10.31796
G1 F1330.9 X128.889 Y103.711 E10.35181
G1 F1575.5 X128.632 Y103.012 E10.38011
G1 F1773.4 X128.213 Y102.377 E10.4058
G1 F1800 X127.972 Y102.107 E10.41783
G1 X127.398 Y101.617 E10.44294
G1 X126.726 Y101.229 E10.46874
G1 X126.403 Y101.096 E10.48036
G1 X125.655 Y100.907 E10.50602
G1 X124.909 Y100.854 E10.5309
G1 X124.154 Y100.941 E10.55617
G1 X123.438 Y101.158 E10.58106
G1 X122.754 Y101.514 E10.60671
G1 X122.468 Y101.715 E10.61833
G1 X121.892 Y102.253 E10.64455
G1 X121.671 Y102.525 E10.6562
G1 F1662.8 X121.308 Y103.183 E10.68326
G1 F1448.7 X121.067 Y103.901 E10.71456
G1 F1288 X120.965 Y104.624 E10.7485
G1 F1220.3 X120.965 Y105.372 E10.78519
G1 F1288 X121.067 Y106.095 E10.81913
G1 F1406.2 X121.274 Y106.761 E10.84882
G1 F1487.6 X121.391 Y106.945 E10.8576
G0 F3600 X121.432 Y106.623
G0 X121.35 Y103.642
G0 X122.08 Y103.642
;TYPE:WALL-OUTER
G1 F1800 X122.202 Y103.555 E10.86258
G1 X127.766 Y103.55 E11.04764
G1 F1804.5 X127.895 Y103.613 E11.0524
G1 X127.95 Y103.75 E11.0573
G1 F1800 X127.951 Y106.25 E11.14045
G1 X127.895 Y106.39 E11.14547
G1 X127.768 Y106.45 E11.15014
G1 X122.206 Y106.45 E11.33513
G1 X122.099 Y106.382 E11.33935
G1 X122.05 Y106.3 E11.34253
G1 X122.053 Y103.711 E11.42864
G1 X122.08 Y103.642 E11.4311
G0 F3600 X122.202 Y103.555
G0 X122.253 Y103.555
G0 X122.253 Y102.85
G0 X121.822 Y106.678
G0 X124.915 Y108.848
G0 X124.901 Y109.549
G1 F1800 X125.715 Y109.49 E11.45825
G1 X126.522 Y109.286 E11.48593
G1 X127.271 Y108.94 E11.51337
G1 X127.955 Y108.458 E11.5412
G1 X128.527 Y107.874 E11.56839
G1 X128.992 Y107.183 E11.59609
G1 X129.168 Y106.824 E11.60939
G1 X129.429 Y106.03 E11.63719
G1 X129.544 Y105.2 E11.66506
G1 X129.507 Y104.385 E11.6922
G1 X129.318 Y103.569 E11.72005
G1 F1804.5 X128.991 Y102.815 E11.74732
G1 X128.53 Y102.131 E11.77469
G1 F1800 X128.252 Y101.82 E11.78856
G1 X127.63 Y101.289 E11.81576
G1 X126.903 Y100.869 E11.84369
G1 X126.529 Y100.715 E11.85714
G1 X125.719 Y100.51 E11.88493
G1 X124.9 Y100.452 E11.91224
G1 X124.072 Y100.548 E11.93996
G1 X123.286 Y100.786 E11.96728
G1 X122.546 Y101.172 E11.99504
G1 X122.215 Y101.404 E12.00848
G1 X121.599 Y101.979 E12.03651
G1 X121.343 Y102.293 E12.04998
G1 X120.918 Y102.992 E12.07719
G1 X120.619 Y103.775 E12.10507
G1 X120.47 Y104.579 E12.13227
G1 X120.47 Y105.417 E12.16014
G1 X120.618 Y106.221 E12.18733
G1 X120.917 Y107.002 E12.21514
G1 X121.338 Y107.698 E12.2422
G1 X121.891 Y108.319 E12.26985
G1 X122.551 Y108.831 E12.29764
G1 X123.282 Y109.213 E12.32507
G1 X124.073 Y109.453 E12.35256
G1 X124.901 Y109.549 E12.38029
G0 F3600 X125.1 Y109.535
G0 X125.051 Y108.837
G0 X127.823 Y107.229
;TYPE:SKIN
G1 F1800 X128.022 Y107.174 E12.38715
G1 X127.908 Y107.39 E12.39528
G1 X127.453 Y107.855 E12.41691
G1 X126.878 Y108.261 E12.44033
G1 X126.263 Y108.546 E12.46287
G1 X125.586 Y108.715 E12.48608
G1 X124.921 Y108.765 E12.50826
G1 X124.229 Y108.684 E12.53143
G1 X123.581 Y108.489 E12.55394
G1 X122.98 Y108.173 E12.57652
G1 X122.424 Y107.743 E12.5999
G1 X121.974 Y107.237 E12.62242
G1 X121.95 Y107.182 E12.62442
G1 X122.224 Y107.229 E12.63367
G1 X127.823 Y107.229 E12.81989
G0 F3600 X127.41 Y107.611
G1 F1800 X127.229 Y107.43 E12.8284
G0 F3600 X127.094 Y107.861
G1 F1800 X126.663 Y107.43 E12.84868
G0 F3600 X126.097 Y107.43
G1 F1800 X126.76 Y108.093 E12.87986
G0 F3600 X126.374 Y108.272
G1 F1800 X125.531 Y107.43 E12.91949
G0 F3600 X124.966 Y107.43
G1 F1800 X125.953 Y108.417 E12.96592
G0 F3600 X125.492 Y108.521
G1 F1800 X124.4 Y107.43 E13.01726
G0 F3600 X123.834 Y107.43
G1 F1800 X124.965 Y108.56 E13.07043
G0 F3600 X124.333 Y108.494
G1 F1800 X123.269 Y107.43 E13.12048
G0 F3600 X122.703 Y107.43
G1 F1800 X123.488 Y108.214 E13.15738
G1 X123.558 Y108.284
G0 F3600 X121.822 Y106.678
G0 X121.822 Y103.322
G0 X122.051 Y102.77
G1 F1800 X121.946 Y102.829 E13.16139
G1 X122.167 Y102.518 E13.17408
G1 X122.708 Y102.012 E13.19871
G1 X122.954 Y101.841 E13.20868
G1 X123.584 Y101.51 E13.23235
G1 X124.227 Y101.317 E13.25468
G1 X124.921 Y101.237 E13.27791
G1 X125.59 Y101.285 E13.30022
G1 X126.283 Y101.459 E13.32398
