;FLAVOR:Marlin
;TIME:969
;Filament used: 0.494912m
;Layer height: 0.15
;MINX:115.726
;MINY:95.716
;MINZ:0.2
;MAXX:134.299
;MAXY:114.287
;MAXZ:29
;Generated with Cura_SteamEngine 5.3.1
M82 ;absolute extrusion mode
G21 ; set units to millimeters
G90 ; use absolute positioning
M82 ; absolute extrusion mode
M104 S200 ; set extruder temp
M140 S60 ; set bed temp
M190 S60 ; wait for bed temp
M109 S200 ; wait for extruder temp
G28 W ; home all without mesh bed level
G80 ; mesh bed leveling
G92 E0.0 ; reset extruder distance position
G1 Y-3.0 F1000.0 ; go outside print area
G1 X60.0 E9.0 F1000.0 ; intro line
G1 X100.0 E21.5 F1000.0 ; intro line
G92 E0.0 ; reset extruder distance position
G92 E0
G92 E0
G1 F2100 E-0.8
;LAYER_COUNT:193
;LAYER:0
M107
G0 F3600 X119.227 Y99.933 Z0.2
;TYPE:SKIRT
G1 F2100 E0
G1 F1800 X119.788 Y99.351 E0.02689
G1 X120.186 Y99.009 E0.04434
G1 X120.845 Y98.539 E0.07126
G1 X121.345 Y98.234 E0.09074
G1 X122.119 Y97.877 E0.11909
G1 X122.672 Y97.669 E0.13874
G1 X123.496 Y97.464 E0.16698
G1 X124.082 Y97.364 E0.18676
G1 X124.939 Y97.316 E0.2153
G1 X125.499 Y97.326 E0.23393
G1 X126.701 Y97.483 E0.27425
G1 X127.575 Y97.76 E0.30475
G1 X128.411 Y98.113 E0.33493
G1 X129.146 Y98.524 E0.36294
G1 X129.574 Y98.82 E0.38025
G1 X130.194 Y99.335 E0.40705
G1 X130.623 Y99.75 E0.4269
G1 X131.162 Y100.407 E0.45517
G1 X131.497 Y100.878 E0.47439
G1 X131.911 Y101.635 E0.50309
G1 X132.155 Y102.172 E0.52271
G1 X132.418 Y102.991 E0.55132
G1 X132.555 Y103.547 E0.57036
G1 X132.66 Y104.362 E0.5977
G1 X132.695 Y105.385 E0.63174
G1 X132.53 Y106.54 E0.67055
G1 X132.398 Y107.116 E0.6902
G1 X132.11 Y107.92 E0.71861
G1 X131.876 Y108.454 E0.738
G1 X131.437 Y109.2 E0.76679
G1 X131.103 Y109.685 E0.78637
G1 X130.539 Y110.329 E0.81485
G1 X130.119 Y110.743 E0.83446
G1 X129.439 Y111.274 E0.86316
G1 X128.781 Y111.695 E0.88914
G1 X128.309 Y111.941 E0.90684
G1 X127.309 Y112.346 E0.94272
G1 X126.363 Y112.562 E0.975
G1 X125.538 Y112.67 E1.00267
G1 X124.821 Y112.69 E1.02653
G1 X123.971 Y112.615 E1.05491
G1 X123.4 Y112.523 E1.07415
G1 X122.592 Y112.297 E1.10205
G1 X122.067 Y112.109 E1.1206
G1 X121.056 Y111.61 E1.1581
G1 X120.232 Y111.023 E1.19175
G1 X119.554 Y110.418 E1.22197
G1 X119.146 Y109.989 E1.24166
G1 X118.637 Y109.306 E1.26999
G1 X118.322 Y108.814 E1.28942
G1 X117.937 Y108.02 E1.31877
G1 X117.728 Y107.5 E1.33741
G1 X117.501 Y106.665 E1.36619
G1 X117.389 Y106.092 E1.38561
G1 X117.322 Y105.249 E1.41374
G1 X117.318 Y104.682 E1.4326
G1 X117.413 Y103.798 E1.46217
G1 X117.517 Y103.227 E1.48147
G1 X117.767 Y102.411 E1.50986
G1 X117.98 Y101.861 E1.52947
G1 X118.38 Y101.102 E1.55801
G1 X118.693 Y100.602 E1.57763
G1 X119.227 Y99.933 E1.6061
G0 F3600 X118.914 Y99.683
G1 F1800 X119.5 Y99.073 E1.63423
G1 X119.954 Y98.683 E1.65414
G1 X120.613 Y98.213 E1.68106
G1 X121.177 Y97.871 E1.703
G1 X121.951 Y97.514 E1.73135
G1 X122.575 Y97.281 E1.7535
G1 X123.399 Y97.076 E1.78175
G1 X124.015 Y96.97 E1.80254
G1 X124.946 Y96.916 E1.83355
G1 X125.551 Y96.929 E1.85368
G1 X126.784 Y97.09 E1.89504
G1 X127.696 Y97.379 E1.92686
G1 X128.606 Y97.764 E1.95972
G1 X129.374 Y98.195 E1.98901
G1 X129.83 Y98.512 E2.00748
G1 X130.45 Y99.027 E2.03429
G1 X130.932 Y99.496 E2.05666
G1 X131.488 Y100.175 E2.08585
G1 X131.848 Y100.686 E2.10664
G1 X132.262 Y101.443 E2.13534
G1 X132.536 Y102.05 E2.15749
G1 X132.799 Y102.869 E2.1861
G1 X132.952 Y103.496 E2.20756
G1 X133.06 Y104.348 E2.23613
G1 X133.096 Y105.406 E2.27134
G1 X132.92 Y106.629 E2.31243
G1 X132.775 Y107.251 E2.33368
G1 X132.487 Y108.055 E2.36208
G1 X132.221 Y108.657 E2.38397
G1 X131.782 Y109.403 E2.41276
G1 X131.404 Y109.949 E2.43485
G1 X130.84 Y110.593 E2.46332
G1 X130.4 Y111.028 E2.4839
G1 X129.655 Y111.611 E2.51536
G1 X128.966 Y112.05 E2.54254
G1 X128.494 Y112.296 E2.56024
G1 X127.459 Y112.717 E2.5974
G1 X126.415 Y112.959 E2.63305
G1 X125.59 Y113.067 E2.66072
G1 X124.832 Y113.09 E2.68594
G1 X123.907 Y113.01 E2.71682
G1 X123.336 Y112.918 E2.73606
G1 X122.457 Y112.674 E2.7664
G1 X121.932 Y112.486 E2.78495
G1 X120.879 Y111.969 E2.82396
G1 X120 Y111.349 E2.85974
G1 X119.264 Y110.694 E2.89251
G1 X118.825 Y110.228 E2.9138
G1 X118.3 Y109.522 E2.94307
G1 X117.962 Y108.989 E2.96406
G1 X117.577 Y108.195 E2.99341
G1 X117.342 Y107.605 E3.01453
G1 X117.108 Y106.742 E3.04427
G1 X116.996 Y106.169 E3.06369
G1 X116.923 Y105.281 E3.09332
G1 X116.92 Y104.639 E3.11468
G1 X117.019 Y103.726 E3.14522
G1 X117.123 Y103.155 E3.16453
G1 X117.394 Y102.267 E3.19541
G1 X117.626 Y101.675 E3.21655
G1 X118.041 Y100.89 E3.24609
G1 X118.38 Y100.352 E3.26724
G1 X118.914 Y99.683 E3.29571
G0 F3600 X118.601 Y99.433
G1 F1800 X119.239 Y98.77 E3.32631
G1 X119.722 Y98.357 E3.34745
G1 X120.381 Y97.887 E3.37437
G1 X121.009 Y97.508 E3.39877
G1 X121.811 Y97.139 E3.42813
G1 X122.435 Y96.906 E3.45028
G1 X123.302 Y96.688 E3.48002
G1 X123.947 Y96.576 E3.50179
G1 X124.955 Y96.516 E3.53538
G1 X125.603 Y96.532 E3.55693
G1 X126.867 Y96.697 E3.59933
G1 X127.817 Y96.998 E3.63248
G1 X128.802 Y97.415 E3.66805
G1 X129.57 Y97.846 E3.69734
G1 X130.086 Y98.204 E3.71823
G1 X130.706 Y98.719 E3.74504
G1 X131.211 Y99.209 E3.76844
G1 X131.815 Y99.945 E3.80011
G1 X132.199 Y100.494 E3.82239
G1 X132.627 Y101.278 E3.8521
G1 X132.901 Y101.885 E3.87425
G1 X133.188 Y102.774 E3.90532
G1 X133.341 Y103.401 E3.92679
G1 X133.46 Y104.334 E3.95807
G1 X133.497 Y105.427 E3.99445
G1 X133.31 Y106.72 E4.0379
G1 X133.152 Y107.386 E4.06067
G1 X132.864 Y108.19 E4.08907
G1 X132.566 Y108.86 E4.11346
G1 X132.111 Y109.631 E4.14324
G1 X131.705 Y110.213 E4.16684
G1 X131.141 Y110.857 E4.19531
G1 X130.647 Y111.343 E4.21836
G1 X129.902 Y111.926 E4.24982
G1 X129.151 Y112.405 E4.27945
G1 X128.645 Y112.667 E4.2984
G1 X127.61 Y113.088 E4.33557
G1 X126.467 Y113.356 E4.37461
G1 X125.642 Y113.464 E4.40229
G1 X124.798 Y113.489 E4.43037
G1 X123.873 Y113.409 E4.46125
G1 X123.272 Y113.313 E4.48149
G1 X122.322 Y113.051 E4.51427
G1 X121.797 Y112.863 E4.53282
G1 X120.648 Y112.296 E4.57543
G1 X119.769 Y111.676 E4.61121
G1 X118.998 Y110.993 E4.64547
G1 X118.504 Y110.467 E4.66947
G1 X117.979 Y109.761 E4.69873
G1 X117.602 Y109.164 E4.72222
G1 X117.205 Y108.343 E4.75255
G1 X116.97 Y107.753 E4.77367
G1 X116.715 Y106.819 E4.80587
G1 X116.597 Y106.202 E4.82677
G1 X116.524 Y105.314 E4.8564
G1 X116.522 Y104.596 E4.88028
G1 X116.625 Y103.654 E4.9118
G1 X116.74 Y103.038 E4.93264
G1 X117.011 Y102.15 E4.96352
G1 X117.272 Y101.488 E4.98719
G1 X117.687 Y100.703 E5.01672
G1 X118.067 Y100.102 E5.04037
G1 X118.601 Y99.433 E5.06884
G0 F3600 X118.288 Y99.183
G1 F1800 X118.979 Y98.466 E5.10196
G1 X119.49 Y98.031 E5.12428
G1 X120.149 Y97.561 E5.1512
G1 X120.802 Y97.166 E5.17659
G1 X121.671 Y96.764 E5.20843
G1 X122.337 Y96.518 E5.23205
G1 X123.204 Y96.3 E5.26178
G1 X123.879 Y96.182 E5.28457
G1 X124.965 Y96.116 E5.32076
G1 X125.655 Y96.135 E5.34372
G1 X126.95 Y96.304 E5.38715
G1 X127.938 Y96.617 E5.42162
G1 X128.998 Y97.066 E5.45991
G1 X129.798 Y97.517 E5.49046
G1 X130.342 Y97.896 E5.51251
G1 X130.962 Y98.411 E5.53932
G1 X131.49 Y98.922 E5.56376
G1 X132.143 Y99.716 E5.59795
G1 X132.55 Y100.302 E5.62168
G1 X132.992 Y101.113 E5.6524
G1 X133.266 Y101.72 E5.67455
G1 X133.577 Y102.679 E5.70808
G1 X133.73 Y103.306 E5.72955
G1 X133.86 Y104.32 E5.76355
G1 X133.898 Y105.448 E5.80109
G1 X133.706 Y106.777 E5.84575
G1 X133.529 Y107.521 E5.87119
G1 X133.241 Y108.325 E5.89959
G1 X132.931 Y109.023 E5.92499
G1 X132.439 Y109.86 E5.95728
G1 X132.006 Y110.477 E5.98236
G1 X131.442 Y111.121 E6.01083
G1 X130.894 Y111.658 E6.03635
G1 X130.149 Y112.241 E6.06781
G1 X129.335 Y112.76 E6.09992
G1 X128.796 Y113.038 E6.12009
G1 X127.761 Y113.459 E6.15725
G1 X126.519 Y113.753 E6.1997
G1 X125.694 Y113.861 E6.22738
G1 X124.764 Y113.888 E6.25832
G1 X123.839 Y113.808 E6.2892
G1 X123.166 Y113.699 E6.31188
G1 X122.187 Y113.428 E6.34567
G1 X121.662 Y113.24 E6.36421
G1 X120.417 Y112.623 E6.41043
G1 X119.538 Y112.003 E6.4462
G1 X118.706 Y111.267 E6.48315
G1 X118.212 Y110.741 E6.50715
G1 X117.658 Y110 E6.53792
G1 X117.264 Y109.378 E6.56241
G1 X116.833 Y108.491 E6.59521
G1 X116.598 Y107.901 E6.61634
G1 X116.322 Y106.894 E6.65106
G1 X116.198 Y106.235 E6.67337
G1 X116.125 Y105.347 E6.703
G1 X116.124 Y104.553 E6.72941
G1 X116.227 Y103.611 E6.76093
G1 X116.357 Y102.921 E6.78428
G1 X116.628 Y102.033 E6.81516
G1 X116.918 Y101.301 E6.84135
G1 X117.333 Y100.516 E6.87088
G1 X117.754 Y99.852 E6.89703
G1 X118.288 Y99.183 E6.9255
G0 F3600 X117.975 Y98.933
G1 F1800 X118.691 Y98.188 E6.95987
G1 X119.231 Y97.726 E6.98351
G1 X119.917 Y97.235 E7.01156
G1 X120.634 Y96.803 E7.03941
G1 X121.532 Y96.389 E7.07229
G1 X122.239 Y96.13 E7.09734
G1 X123.106 Y95.912 E7.12707
G1 X123.81 Y95.788 E7.15085
G1 X124.976 Y95.716 E7.1897
G1 X125.707 Y95.738 E7.21403
G1 X127.033 Y95.911 E7.2585
G1 X128.059 Y96.236 E7.2943
G1 X129.154 Y96.698 E7.33383
G1 X130.027 Y97.189 E7.36714
G1 X130.598 Y97.588 E7.39031
G1 X131.218 Y98.103 E7.41712
G1 X131.799 Y98.668 E7.44407
G1 X132.472 Y99.488 E7.47936
G1 X132.879 Y100.074 E7.50309
G1 X133.357 Y100.948 E7.53622
G1 X133.631 Y101.555 E7.55837
G1 X133.966 Y102.584 E7.59436
G1 X134.119 Y103.211 E7.61583
G1 X134.257 Y104.269 E7.65131
G1 X134.299 Y105.469 E7.69125
G1 X134.102 Y106.834 E7.73712
G1 X133.906 Y107.656 E7.76523
G1 X133.618 Y108.46 E7.79363
G1 X133.276 Y109.226 E7.82153
G1 X132.784 Y110.063 E7.85383
G1 X132.307 Y110.741 E7.8814
G1 X131.743 Y111.385 E7.90987
G1 X131.141 Y111.973 E7.93786
G1 X130.396 Y112.556 E7.96932
G1 X129.518 Y113.116 E8.00396
G1 X128.947 Y113.409 E8.02531
G1 X127.912 Y113.83 E8.06247
G1 X126.571 Y114.15 E8.10832
G1 X125.746 Y114.258 E8.136
G1 X124.73 Y114.287 E8.1698
G1 X123.805 Y114.207 E8.20068
G1 X123.059 Y114.085 E8.22583
G1 X122.08 Y113.814 E8.25961
G1 X121.527 Y113.617 E8.27914
G1 X120.186 Y112.95 E8.32895
G1 X119.273 Y112.303 E8.36617
G1 X118.414 Y111.541 E8.40436
G1 X117.92 Y111.015 E8.42836
G1 X117.32 Y110.214 E8.46165
G1 X116.904 Y109.553 E8.48763
G1 X116.461 Y108.639 E8.52141
G1 X116.212 Y108.007 E8.544
G1 X115.936 Y107 E8.57873
G1 X115.799 Y106.268 E8.6035
G1 X115.726 Y105.38 E8.63313
G1 X115.726 Y104.51 E8.66207
G1 X115.829 Y103.568 E8.69359
G1 X115.974 Y102.804 E8.71945
G1 X116.245 Y101.916 E8.75033
G1 X116.564 Y101.114 E8.77904
G1 X116.979 Y100.329 E8.80857
G1 X117.441 Y99.602 E8.83722
G1 X117.975 Y98.933 E8.86569
G1 F2100 E8.06569
G0 F3600 X125.349 Y104.41
;TYPE:SUPPORT
G1 F2100 E8.86569
G1 F1800 X125.349 Y105.59 E8.90494
G1 F2100 E8.10494
;MESH:Connector V2 90.stl
G0 F3600 X125.349 Y106.65
G0 X127.752 Y107.15
G0 X127.752 Y106.851
;TYPE:WALL-INNER
G1 F2100 E8.90494
G1 F1800 X122.252 Y106.85 E9.08787
G1 F1338.3 X121.659 Y106.69 E9.11535
G1 X121.691 Y107.051 E9.13156
G1 F1800 X122.147 Y107.651 E9.15662
G1 X122.709 Y108.151 E9.18164
G1 X122.98 Y108.332 E9.19248
G1 X123.66 Y108.659 E9.21758
G1 X124.36 Y108.843 E9.24165
G1 X125.086 Y108.896 E9.26586
G1 X125.827 Y108.809 E9.29068
G1 X126.159 Y108.722 E9.30209
G1 X126.851 Y108.431 E9.32706
G1 X127.148 Y108.254 E9.33856
G1 X127.723 Y107.79 E9.36313
G1 X128.207 Y107.214 E9.38816
G1 F1333.3 X128.326 Y106.722 E9.41089
G1 X127.752 Y106.851 E9.4373
G0 F3600 X127.952 Y106.3
;TYPE:WALL-OUTER
G1 F1804.5 X127.908 Y106.378 E9.44027
G1 F1800 X127.794 Y106.451 E9.44478
G1 X122.173 Y106.45 E9.63173
G1 F1804.5 X122.055 Y106.282 E9.63854
G1 X122.054 Y103.715 E9.72371
G1 F1800 X122.175 Y103.55 E9.73051
G1 X127.798 Y103.55 E9.91753
G1 F1804.5 X127.95 Y103.669 E9.92394
G1 X127.952 Y106.3 E10.01123
G0 F3600 X127.908 Y106.378
G0 X127.815 Y106.438
G0 X127.815 Y107.15
G0 X125.08 Y108.596
G0 X125.095 Y109.298
G1 F1800 X125.901 Y109.203 E10.03822
G1 X126.287 Y109.102 E10.05149
G1 X127.032 Y108.789 E10.07837
G1 X127.378 Y108.583 E10.09176
G1 X128.003 Y108.078 E10.11849
G1 X128.524 Y107.466 E10.14522
G1 X128.918 Y106.772 E10.17176
G1 X129.182 Y106.001 E10.19887
G1 X129.298 Y105.196 E10.22592
G1 X129.298 Y104.809 E10.23879
G1 X129.184 Y104.006 E10.26577
G1 X128.925 Y103.24 E10.29266
G1 X128.53 Y102.543 E10.31931
G1 X128.011 Y101.93 E10.34602
G1 X127.387 Y101.423 E10.37276
G1 X127.039 Y101.214 E10.38626
G1 X126.297 Y100.901 E10.41305
G1 X125.913 Y100.799 E10.42626
G1 X125.107 Y100.702 E10.45326
G1 X124.303 Y100.76 E10.48008
G1 X123.52 Y100.965 E10.507
G1 X122.799 Y101.309 E10.53357
G1 X122.142 Y101.79 E10.56065
G1 X121.849 Y102.077 E10.57429
G1 X121.366 Y102.71 E10.60077
G1 X121.005 Y103.419 E10.62723
G1 X120.781 Y104.191 E10.65397
G1 X120.703 Y104.995 E10.68084
G1 X120.779 Y105.8 E10.70773
G1 F1804.5 X121 Y106.57 E10.73431
G1 X121.359 Y107.283 E10.76079
G1 F1800 X121.853 Y107.925 E10.78774
G1 X122.464 Y108.469 E10.81494
G1 X122.781 Y108.68 E10.82761
G1 X123.521 Y109.036 E10.85492
G1 X124.294 Y109.239 E10.8815
G1 X125.095 Y109.298 E10.90822
G0 F3600 X125.293 Y109.275
G0 X125.213 Y108.579
G0 X121.824 Y106.678
G0 X121.439 Y105.872
G0 X121.613 Y106.353
;TYPE:WALL-INNER
G1 F1674.4 X121.668 Y106.205 E10.91386
G1 F1782.2 X121.632 Y105.681 E10.93151
G1 F1575.5 X121.616 Y104.995 E10.95758
G1 F1578.9 X121.632 Y104.311 E10.98352
G1 F1442.9 X121.558 Y103.517 E11.01661
G1 F1306.7 X121.406 Y103.726 E11.02845
G1 F1463.4 X121.195 Y104.27 E11.05232
G1 F1578.9 X121.141 Y104.995 E11.07989
G1 F1575.5 X121.193 Y105.722 E11.10758
G1 F1782.2 X121.308 Y106.255 E11.1259
G1 F1395.3 X121.598 Y106.579 E11.14456
G1 F1245.7 X121.613 Y106.353 E11.15544
G0 F3600 X121.439 Y105.872
G0 X121.824 Y106.678
G0 X128.18 Y106.678
G0 X128.652 Y104.999
G0 X128.393 Y104.999
G1 F1659 X128.364 Y105.856 E11.18639
G1 F1323.5 X128.45 Y106.49 E11.21533
G1 F1218.3 X128.603 Y106.282 E11.22802
G1 F1538.5 X128.781 Y105.905 E11.24424
G1 F1659 X128.88 Y105.003 E11.27699
G1 F1655.2 X128.782 Y104.101 E11.30981
G1 F1795.5 X128.711 Y103.819 E11.3195
G1 F1363.6 X128.442 Y103.49 E11.33816
G1 X128.341 Y103.879 E11.3558
G1 F1795.5 X128.363 Y104.15 E11.36487
G1 F1655.2 X128.393 Y104.999 E11.3956
G0 F3600 X128.652 Y104.999
G0 X128.18 Y103.322
G0 X127.867 Y103.15
G1 F1343.3 X128.393 Y103.386 E11.42129
G1 X128.212 Y102.794 E11.44888
G1 F1800 X127.729 Y102.217 E11.47391
G1 X127.157 Y101.751 E11.49845
G1 X126.857 Y101.572 E11.51007
G1 X126.167 Y101.281 E11.53498
G1 X125.837 Y101.193 E11.54633
G1 X125.097 Y101.104 E11.57112
G1 X124.369 Y101.156 E11.5954
G1 X123.658 Y101.342 E11.61984
G1 X123.005 Y101.654 E11.64391
G1 X122.402 Y102.096 E11.66878
G1 X122.149 Y102.343 E11.68054
G1 X121.698 Y102.941 E11.70545
G1 F1353.4 X121.599 Y103.418 E11.727
G1 X121.975 Y103.216 E11.74588
G1 F1800 X122.252 Y103.15 E11.75536
G1 X127.867 Y103.15 E11.94211
G0 F3600 X127.867 Y102.85
G0 X128.567 Y105.896
G0 X128.45 Y106.49
G1 F1068.2 X128.326 Y106.722 E11.95685
G0 F3600 X127.984 Y107.1
G0 X125.074 Y108.514
;TYPE:SKIN
G1 F1800 X124.426 Y108.464 E11.97847
G1 X123.795 Y108.301 E12.00015
G1 X123.164 Y107.996 E12.02346
G1 X122.945 Y107.85 E12.03221
G1 X122.425 Y107.388 E12.05535
G1 X122.306 Y107.231 E12.0619
G1 X127.698 Y107.231 E12.24124
G1 X127.456 Y107.514 E12.25362
G1 X126.936 Y107.936 E12.2759
G1 X126.674 Y108.093 E12.28605
G1 X126.042 Y108.359 E12.30886
G1 X125.759 Y108.433 E12.31859
G1 X125.074 Y108.514 E12.34153
G0 F3600 X123.269 Y107.43
G1 F1800 X123.981 Y108.142 E12.37502
G0 F3600 X124.688 Y108.283
G1 F1800 X123.835 Y107.43 E12.41514
G0 F3600 X124.401 Y107.43
G1 F1800 X125.26 Y108.289 E12.45555
G0 F3600 X125.761 Y108.225
G1 F1800 X124.966 Y107.43 E12.49294
G0 F3600 X125.532 Y107.43
G1 F1800 X126.183 Y108.081 E12.52357
G0 F3600 X126.582 Y107.914
G1 F1800 X126.098 Y107.43 E12.54633
G0 F3600 X126.664 Y107.43
G1 F1800 X126.921 Y107.688 E12.55844
G0 F3600 X128.18 Y106.678
G0 X128.18 Y103.322
G0 X127.699 Y102.769
G1 F1800 X122.301 Y102.77 E12.73798
G1 X122.644 Y102.391 E12.75498
G1 X123.2 Y101.982 E12.77794
G1 X123.788 Y101.703 E12.79959
G1 X124.435 Y101.535 E12.82182
G1 X125.085 Y101.486 E12.8435
G1 X125.772 Y101.569 E12.86652
G1 X126.041 Y101.64 E12.87577
G1 X126.679 Y101.911 E12.89882
G1 X126.943 Y102.068 E12.90904
G1 X127.463 Y102.491 E12.93134
G1 X127.699 Y102.769 E12.94346
G0 F3600 X126.893 Y102.568
G1 F1800 X126.287 Y101.963 E12.97194
G0 F3600 X126.327 Y102.568
G1 F1800 X125.496 Y101.737 E13.01103
G0 F3600 X124.894 Y101.701
G1 F1800 X125.761 Y102.568 E13.05181
G0 F3600 X125.196 Y102.568
