;FLAVOR:Marlin
;TIME:1118
;Filament used: 0.617931m
;Layer height: 0.15
;MINX:115.475
;MINY:95.467
;MINZ:0.2
;MAXX:134.546
;MAXY:114.546
;MAXZ:35
;Generated with Cura_SteamEngine 5.3.1
M82 ;absolute extrusion mode
G21 ; set units to millimeters
G90 ; use absolute positioning
M82 ; absolute extrusion mode
M104 S200 ; set extruder temp
M140 S60 ; set bed temp
M190 S60 ; wait for bed temp
M109 S200 ; wait for extruder temp
G28 W ; home all without mesh bed level
G80 ; mesh bed leveling
G92 E0.0 ; reset extruder distance position
G1 Y-3.0 F1000.0 ; go outside print area
G1 X60.0 E9.0 F1000.0 ; intro line
G1 X100.0 E21.5 F1000.0 ; intro line
G92 E0.0 ; reset extruder distance position
G92 E0
G92 E0
G1 F2100 E-0.8
;LAYER_COUNT:233
;LAYER:0
M107
G0 F3600 X118.622 Y100.263 Z0.2
;TYPE:SKIRT
G1 F2100 E0
G1 F1800 X119.062 Y99.746 E0.02258
G1 X119.755 Y99.045 E0.05537
G1 X120.273 Y98.633 E0.07738
G1 X121.007 Y98.146 E0.10668
G1 X121.664 Y97.789 E0.13155
G1 X122.283 Y97.551 E0.1536
G1 X123.253 Y97.258 E0.18731
G1 X123.885 Y97.147 E0.20865
G1 X124.816 Y97.065 E0.23973
G1 X125.466 Y97.08 E0.26136
G1 X126.405 Y97.186 E0.29279
G1 X127.035 Y97.331 E0.31429
G1 X127.905 Y97.611 E0.34469
G1 X128.507 Y97.883 E0.36666
G1 X129.33 Y98.346 E0.39807
G1 X129.856 Y98.725 E0.41963
G1 X130.564 Y99.337 E0.45076
G1 X131.007 Y99.814 E0.47241
G1 X131.586 Y100.578 E0.50429
G1 X132.133 Y101.484 E0.53949
G1 X132.6 Y102.707 E0.58303
G1 X132.755 Y103.316 E0.60393
G1 X132.891 Y104.148 E0.63197
G1 X132.95 Y104.912 E0.65746
G1 X132.91 Y105.592 E0.68012
G1 X132.772 Y106.621 E0.71465
G1 X132.616 Y107.231 E0.73559
G1 X132.31 Y108.1 E0.76623
G1 X132.029 Y108.683 E0.78776
G1 X131.576 Y109.442 E0.81716
G1 X130.873 Y110.362 E0.85567
G1 X129.926 Y111.225 E0.89828
G1 X129.41 Y111.596 E0.91942
G1 X128.621 Y112.066 E0.94996
G1 X128.02 Y112.336 E0.97188
G1 X127.521 Y112.512 E0.98948
G1 X127.016 Y112.673 E1.00711
G1 X126.498 Y112.791 E1.02478
G1 X125.648 Y112.908 E1.05331
G1 X124.879 Y112.946 E1.07892
G1 X124.203 Y112.889 E1.10148
G1 X123.189 Y112.727 E1.13564
G1 X122.581 Y112.555 E1.15665
G1 X121.733 Y112.233 E1.18682
G1 X121.151 Y111.934 E1.20859
G1 X120.361 Y111.438 E1.23961
G1 X119.858 Y111.037 E1.26101
G1 X119.219 Y110.432 E1.29027
G1 X118.714 Y109.859 E1.31568
G1 X118.348 Y109.312 E1.33757
G1 X117.837 Y108.413 E1.37196
G1 X117.544 Y107.715 E1.39714
G1 X117.285 Y106.832 E1.42775
G1 X117.178 Y106.3 E1.44579
G1 X117.075 Y105.379 E1.47662
G1 X117.075 Y104.733 E1.4981
G1 X117.158 Y103.797 E1.52936
G1 X117.286 Y103.163 E1.55087
G1 X117.438 Y102.645 E1.56883
G1 X117.593 Y102.167 E1.58554
G1 X117.804 Y101.668 E1.60356
G1 X118.2 Y100.916 E1.63183
G1 X118.622 Y100.263 E1.65769
G0 F3600 X118.317 Y100.004
G1 F1800 X118.757 Y99.487 E1.68027
G1 X119.506 Y98.732 E1.71564
G1 X120.024 Y98.32 E1.73765
G1 X120.816 Y97.795 E1.76926
G1 X121.52 Y97.416 E1.79585
G1 X122.167 Y97.168 E1.81889
G1 X123.137 Y96.875 E1.8526
G1 X123.816 Y96.753 E1.87554
G1 X124.825 Y96.665 E1.90923
G1 X125.475 Y96.68 E1.93085
G1 X126.495 Y96.796 E1.965
G1 X127.158 Y96.95 E1.98764
G1 X128.07 Y97.246 E2.01953
G1 X128.672 Y97.518 E2.0415
G1 X129.564 Y98.021 E2.07556
G1 X130.118 Y98.422 E2.0983
G1 X130.826 Y99.034 E2.12943
G1 X131.326 Y99.572 E2.15386
G1 X131.905 Y100.336 E2.18574
G1 X132.496 Y101.311 E2.22366
G1 X132.988 Y102.608 E2.2698
G1 X133.143 Y103.217 E2.2907
G1 X133.286 Y104.083 E2.3199
G1 X133.349 Y104.881 E2.34652
G1 X133.309 Y105.615 E2.37097
G1 X133.16 Y106.72 E2.40805
G1 X133.004 Y107.33 E2.429
G1 X132.67 Y108.274 E2.4623
G1 X132.389 Y108.857 E2.48383
G1 X131.894 Y109.685 E2.51591
G1 X131.17 Y110.633 E2.55559
G1 X130.16 Y111.55 E2.60096
G1 X129.615 Y111.94 E2.62325
G1 X128.826 Y112.41 E2.65379
G1 X128.184 Y112.701 E2.67724
G1 X127.642 Y112.893 E2.69636
G1 X127.105 Y113.063 E2.7151
G1 X126.587 Y113.181 E2.73277
G1 X125.668 Y113.308 E2.76362
G1 X124.899 Y113.346 E2.78923
G1 X124.169 Y113.288 E2.81359
G1 X123.08 Y113.112 E2.85028
G1 X122.472 Y112.94 E2.87129
G1 X121.55 Y112.589 E2.90411
G1 X120.938 Y112.273 E2.92702
G1 X120.148 Y111.777 E2.95804
G1 X119.609 Y111.35 E2.98091
G1 X118.919 Y110.696 E3.01253
G1 X118.414 Y110.123 E3.03794
G1 X118 Y109.51 E3.06254
G1 X117.489 Y108.611 E3.09693
G1 X117.16 Y107.828 E3.12518
G1 X116.901 Y106.945 E3.15579
G1 X116.78 Y106.344 E3.17618
G1 X116.677 Y105.423 E3.207
G1 X116.675 Y104.733 E3.22995
G1 X116.766 Y103.718 E3.26384
G1 X116.902 Y103.05 E3.28652
G1 X117.054 Y102.532 E3.30447
G1 X117.225 Y102.011 E3.32271
G1 X117.45 Y101.482 E3.34183
G1 X117.864 Y100.699 E3.37129
G1 X118.317 Y100.004 E3.39888
G0 F3600 X118.012 Y99.745
G1 F1800 X118.473 Y99.205 E3.4225
G1 X119.222 Y98.45 E3.45787
G1 X119.775 Y98.007 E3.48144
G1 X120.626 Y97.443 E3.51539
G1 X121.377 Y97.042 E3.54371
G1 X122.024 Y96.794 E3.56676
G1 X123.066 Y96.481 E3.60294
G1 X123.745 Y96.359 E3.62589
G1 X124.834 Y96.265 E3.66224
G1 X125.484 Y96.28 E3.68387
G1 X126.586 Y96.406 E3.72076
G1 X127.249 Y96.56 E3.7434
G1 X128.235 Y96.881 E3.77789
G1 X128.837 Y97.153 E3.79986
G1 X129.799 Y97.697 E3.83661
G1 X130.38 Y98.119 E3.8605
G1 X131.088 Y98.731 E3.89162
G1 X131.645 Y99.33 E3.91883
G1 X132.224 Y100.094 E3.95071
G1 X132.858 Y101.136 E3.99128
G1 X133.376 Y102.509 E4.04009
G1 X133.531 Y103.118 E4.06099
G1 X133.681 Y104.018 E4.09134
G1 X133.748 Y104.85 E4.1191
G1 X133.705 Y105.668 E4.14634
G1 X133.548 Y106.819 E4.18498
G1 X133.392 Y107.429 E4.20592
G1 X133.03 Y108.448 E4.24189
G1 X132.749 Y109.031 E4.26342
G1 X132.212 Y109.928 E4.29819
G1 X131.467 Y110.904 E4.33903
G1 X130.393 Y111.875 E4.38718
G1 X129.82 Y112.284 E4.4106
G1 X129.031 Y112.754 E4.44114
G1 X128.318 Y113.078 E4.46719
G1 X127.763 Y113.274 E4.48677
G1 X127.194 Y113.453 E4.50661
G1 X126.676 Y113.571 E4.52428
G1 X125.688 Y113.708 E4.55745
G1 X124.919 Y113.746 E4.58306
G1 X124.105 Y113.683 E4.61022
G1 X123.016 Y113.507 E4.64691
G1 X122.363 Y113.325 E4.66945
G1 X121.408 Y112.963 E4.70342
G1 X120.725 Y112.612 E4.72896
G1 X119.935 Y112.116 E4.75999
G1 X119.361 Y111.664 E4.78429
G1 X118.619 Y110.96 E4.81831
G1 X118.083 Y110.347 E4.84539
G1 X117.652 Y109.708 E4.87103
G1 X117.141 Y108.809 E4.90542
G1 X116.776 Y107.941 E4.93674
G1 X116.517 Y107.058 E4.96734
G1 X116.382 Y106.388 E4.99008
G1 X116.279 Y105.467 E5.0209
G1 X116.275 Y104.734 E5.04528
G1 X116.374 Y103.638 E5.08188
G1 X116.518 Y102.937 E5.10568
G1 X116.674 Y102.407 E5.12406
G1 X116.857 Y101.854 E5.14343
G1 X117.096 Y101.295 E5.16365
G1 X117.51 Y100.512 E5.19311
G1 X118.012 Y99.745 E5.2236
G0 F3600 X117.677 Y99.526
G1 F1800 X118.189 Y98.923 E5.24991
G1 X118.938 Y98.168 E5.28528
G1 X119.554 Y97.674 E5.31155
G1 X120.438 Y97.09 E5.34678
G1 X121.234 Y96.668 E5.37675
G1 X121.881 Y96.42 E5.3998
G1 X122.995 Y96.087 E5.43847
G1 X123.711 Y95.96 E5.46265
G1 X124.8 Y95.866 E5.49901
G1 X125.493 Y95.88 E5.52206
G1 X126.677 Y96.016 E5.5617
G1 X127.34 Y96.17 E5.58434
G1 X128.4 Y96.516 E5.62143
G1 X129.002 Y96.788 E5.6434
G1 X130.034 Y97.373 E5.68285
G1 X130.642 Y97.816 E5.70787
G1 X131.35 Y98.428 E5.739
G1 X131.964 Y99.088 E5.76898
G1 X132.543 Y99.852 E5.80087
G1 X133.218 Y100.957 E5.84393
G1 X133.764 Y102.41 E5.89556
G1 X133.926 Y103.052 E5.91758
G1 X134.076 Y103.952 E5.94793
G1 X134.147 Y104.818 E5.97683
G1 X134.101 Y105.722 E6.00694
G1 X133.936 Y106.918 E6.04709
G1 X133.78 Y107.528 E6.06803
G1 X133.407 Y108.582 E6.10522
G1 X133.109 Y109.205 E6.12819
G1 X132.53 Y110.171 E6.16565
G1 X131.763 Y111.176 E6.2077
G1 X130.625 Y112.201 E6.25864
G1 X130.025 Y112.628 E6.28313
G1 X129.236 Y113.098 E6.31368
G1 X128.451 Y113.455 E6.34236
G1 X127.883 Y113.656 E6.3624
G1 X127.314 Y113.835 E6.38224
G1 X126.765 Y113.961 E6.40097
G1 X125.708 Y114.108 E6.43647
G1 X124.939 Y114.146 E6.46207
G1 X124.041 Y114.078 E6.49203
G1 X122.952 Y113.902 E6.52872
G1 X122.221 Y113.699 E6.55395
G1 X121.225 Y113.319 E6.58941
G1 X120.512 Y112.951 E6.61609
G1 X119.722 Y112.455 E6.64712
G1 X119.086 Y111.954 E6.67405
G1 X118.318 Y111.223 E6.70931
G1 X117.751 Y110.571 E6.73805
G1 X117.304 Y109.906 E6.7647
G1 X116.793 Y109.007 E6.79909
G1 X116.392 Y108.054 E6.83348
G1 X116.133 Y107.171 E6.86409
G1 X115.984 Y106.432 E6.88916
G1 X115.881 Y105.511 E6.91999
G1 X115.875 Y104.736 E6.94576
G1 X115.982 Y103.558 E6.98511
G1 X116.134 Y102.824 E7.01004
G1 X116.294 Y102.281 E7.02886
G1 X116.477 Y101.728 E7.04824
G1 X116.742 Y101.108 E7.07066
G1 X117.156 Y100.325 E7.10012
G1 X117.677 Y99.526 E7.13185
G0 F3600 X117.372 Y99.267
G1 F1800 X117.905 Y98.641 E7.15919
G1 X118.654 Y97.886 E7.19457
G1 X119.334 Y97.34 E7.22357
G1 X120.218 Y96.756 E7.25881
G1 X121.091 Y96.294 E7.29166
G1 X121.738 Y96.046 E7.31471
G1 X122.925 Y95.693 E7.3559
G1 X123.677 Y95.561 E7.38129
G1 X124.766 Y95.467 E7.41765
G1 X125.501 Y95.48 E7.4421
G1 X126.768 Y95.626 E7.48451
G1 X127.431 Y95.78 E7.50715
G1 X128.565 Y96.151 E7.54684
G1 X129.167 Y96.423 E7.56881
G1 X130.27 Y97.05 E7.61101
G1 X130.904 Y97.513 E7.63712
G1 X131.612 Y98.125 E7.66825
G1 X132.283 Y98.846 E7.701
G1 X132.862 Y99.61 E7.73289
G1 X133.578 Y100.78 E7.77851
G1 X134.152 Y102.312 E7.83292
G1 X134.321 Y102.986 E7.85604
G1 X134.471 Y103.886 E7.88638
G1 X134.546 Y104.785 E7.91639
G1 X134.497 Y105.777 E7.94942
G1 X134.324 Y107.017 E7.99106
G1 X134.168 Y107.627 E8.01201
G1 X133.768 Y108.755 E8.05181
G1 X133.47 Y109.378 E8.07478
G1 X132.848 Y110.414 E8.11497
G1 X132.059 Y111.448 E8.15823
G1 X130.857 Y112.527 E8.21196
G1 X130.23 Y112.972 E8.23753
G1 X129.441 Y113.442 E8.26807
G1 X128.617 Y113.819 E8.29821
G1 X128.003 Y114.038 E8.31989
G1 X127.434 Y114.217 E8.33973
G1 X126.854 Y114.351 E8.35953
G1 X125.728 Y114.508 E8.39735
G1 X124.959 Y114.546 E8.42295
G1 X123.977 Y114.473 E8.45571
G1 X122.888 Y114.297 E8.4924
G1 X122.078 Y114.073 E8.52035
G1 X121.082 Y113.693 E8.5558
G1 X120.299 Y113.29 E8.58509
G1 X119.509 Y112.794 E8.61612
G1 X118.81 Y112.244 E8.6457
G1 X118.042 Y111.513 E8.68097
G1 X117.419 Y110.794 E8.71261
G1 X116.956 Y110.104 E8.74025
G1 X116.445 Y109.205 E8.77464
G1 X116.008 Y108.167 E8.8121
G1 X115.749 Y107.284 E8.8427
G1 X115.586 Y106.476 E8.87012
G1 X115.483 Y105.555 E8.90094
G1 X115.475 Y104.739 E8.92809
G1 X115.59 Y103.477 E8.97023
G1 X115.75 Y102.711 E8.99626
G1 X115.914 Y102.155 E9.01554
G1 X116.097 Y101.602 E9.03491
G1 X116.388 Y100.921 E9.05955
G1 X116.802 Y100.138 E9.08901
G1 X117.372 Y99.267 E9.12363
G1 F2100 E8.32363
G0 F3600 X125.349 Y104.41
;TYPE:SUPPORT
G1 F2100 E9.12363
G1 F1800 X125.349 Y105.59 E9.16287
G1 F2100 E8.36287
;MESH:Connector V1 95.stl
G0 F3600 X125.349 Y106.65
G0 X128.181 Y106.678
G0 X128.232 Y106.671
;TYPE:WALL-INNER
G1 F2100 E9.16287
G1 F1659 X127.842 Y106.851 E9.17837
G1 F1800 X122.214 Y106.849 E9.36556
G1 X122.029 Y106.808 E9.37186
G1 F1670.5 X121.758 Y106.644 E9.38322
G1 F1478.4 X121.621 Y106.384 E9.39512
G1 F1343.3 X121.573 Y105.748 E9.42354
G1 F1245.7 X121.555 Y104.998 E9.4596
G1 X121.574 Y104.239 E9.49609
G1 F1398.1 X121.622 Y103.667 E9.52067
G1 F1548.4 X121.7 Y103.449 E9.52962
G1 F1678.3 X122.033 Y103.191 E9.54465
G1 F1800 X122.218 Y103.15 E9.55095
G1 X127.753 Y103.15 E9.73505
G1 F1786.6 X128.108 Y103.261 E9.74751
G1 F1655.2 X128.296 Y103.426 E9.75656
G1 F1469.4 X128.409 Y103.723 E9.7695
G1 F1330.9 X128.457 Y105.006 E9.82726
G1 F1316.3 X128.413 Y106.176 E9.88051
G1 F1469.4 X128.345 Y106.468 E9.89273
G1 F1561.8 X128.232 Y106.671 E9.90163
G0 F3600 X128.607 Y106.948
G1 F1487.6 X128.741 Y106.735 E9.91176
G1 F1384.6 X128.955 Y106.01 E9.94445
G1 F1267.6 X129.049 Y105.196 E9.98315
G1 F1206 X129.049 Y104.815 E10.00206
G1 F1267.6 X128.955 Y103.996 E10.04099
G1 F1440 X128.822 Y103.519 E10.06158
G1 F1659 X128.544 Y102.848 E10.08779
G1 F1786.6 X128.047 Y102.186 E10.11553
G1 F1800 X127.425 Y101.637 E10.14313
G1 X126.712 Y101.222 E10.17056
G1 X125.931 Y100.96 E10.19796
G1 X125.106 Y100.855 E10.22562
G1 X124.279 Y100.918 E10.25321
G1 X123.481 Y101.141 E10.28077
G1 X123.124 Y101.303 E10.29381
G1 X122.417 Y101.757 E10.32175
G1 X121.823 Y102.336 E10.34934
G1 X121.587 Y102.646 E10.3623
G1 F1578.9 X121.195 Y103.437 E10.39577
G1 F1345.8 X121.019 Y104.183 E10.42987
G1 F1245.7 X120.956 Y104.998 E10.46916
G1 X121.018 Y105.803 E10.50796
G1 F1343.3 X121.188 Y106.548 E10.54202
G1 F1578.9 X121.584 Y107.347 E10.57583
G1 F1800 X121.818 Y107.657 E10.58875
G1 X122.412 Y108.238 E10.61639
G1 X123.107 Y108.687 E10.64391
G1 X123.879 Y108.991 E10.6715
G1 X124.701 Y109.138 E10.69927
G1 X125.08 Y109.147 E10.71188
G1 X125.923 Y109.041 E10.74014
G1 X126.707 Y108.781 E10.76762
G1 X127.415 Y108.373 E10.79479
G1 X128.055 Y107.809 E10.82317
G1 X128.296 Y107.522 E10.83563
G1 F1659 X128.607 Y106.948 E10.85919
G0 F3600 X127.954 Y106.3
;TYPE:WALL-OUTER
G1 F1800 X127.904 Y106.383 E10.86241
G1 X127.79 Y106.447 E10.86676
G1 X122.197 Y106.45 E11.05279
G1 X122.053 Y106.293 E11.05987
G1 X122.054 Y103.674 E11.14698
G1 X122.194 Y103.55 E11.1532
G1 X127.753 Y103.55 E11.33809
G1 F1804.5 X127.87 Y103.588 E11.34217
G1 X127.951 Y103.714 E11.34714
G1 F1800 X127.954 Y106.3 E11.43315
G0 F3600 X127.904 Y106.383
G0 X127.813 Y106.434
G0 X127.813 Y107.15
G0 X125.073 Y108.849
G0 X125.1 Y109.548
G1 F1800 X126.012 Y109.433 E11.46373
G1 X126.872 Y109.147 E11.49387
G1 X127.649 Y108.699 E11.5237
G1 X128.342 Y108.089 E11.55441
G1 X128.622 Y107.757 E11.56885
G1 X129.1 Y106.975 E11.59934
G1 X129.412 Y106.127 E11.62939
G1 X129.547 Y105.233 E11.65946
G1 X129.547 Y104.778 E11.6746
G1 X129.412 Y103.879 E11.70483
G1 X129.104 Y103.033 E11.73478
G1 F1804.5 X128.885 Y102.629 E11.75002
G1 X128.342 Y101.913 E11.77984
G1 F1800 X127.661 Y101.311 E11.81007
G1 X126.878 Y100.856 E11.84019
G1 X126.021 Y100.568 E11.87026
G1 X125.116 Y100.453 E11.9006
G1 X124.209 Y100.522 E11.93086
G1 X123.344 Y100.764 E11.96073
G1 X122.932 Y100.951 E11.97578
G1 X122.167 Y101.442 E12.00601
G1 X121.522 Y102.07 E12.03595
G1 X121.25 Y102.429 E12.05093
G1 X120.812 Y103.233 E12.08139
G1 X120.547 Y104.087 E12.11113
G1 X120.455 Y104.998 E12.14158
G1 X120.545 Y105.898 E12.17166
G1 X120.809 Y106.758 E12.20159
G1 X121.246 Y107.564 E12.23208
G1 X121.516 Y107.922 E12.24699
G1 X122.161 Y108.552 E12.27698
G1 X122.923 Y109.045 E12.30717
G1 X123.769 Y109.378 E12.33741
G1 X124.661 Y109.537 E12.36754
G1 X125.1 Y109.548 E12.38215
G0 F3600 X125.298 Y109.523
G0 X125.212 Y108.83
G0 X127.867 Y107.232
;TYPE:SKIN
G1 F1800 X128.041 Y107.177 E12.38822
G1 X127.787 Y107.536 E12.40285
G1 X127.187 Y108.064 E12.42943
G1 X126.553 Y108.43 E12.45378
G1 X125.839 Y108.667 E12.4788
G1 X125.054 Y108.766 E12.50511
G1 X124.737 Y108.758 E12.51566
G1 X123.988 Y108.624 E12.54097
G1 X123.279 Y108.345 E12.56631
G1 X122.648 Y107.938 E12.59128
G1 X122.108 Y107.411 E12.61638
G1 X121.932 Y107.173 E12.62623
G1 X122.196 Y107.229 E12.6352
G1 X127.867 Y107.232 E12.82382
G0 F3600 X127.404 Y107.605
G1 F1800 X127.23 Y107.431 E12.832
G0 F3600 X127.103 Y107.869
G1 F1800 X126.664 Y107.431 E12.85263
G0 F3600 X126.099 Y107.431
G1 F1800 X126.751 Y108.083 E12.8833
G0 F3600 X126.377 Y108.275
G1 F1800 X125.533 Y107.431 E12.923
G0 F3600 X124.967 Y107.431
G1 F1800 X125.954 Y108.417 E12.9694
G0 F3600 X125.481 Y108.51
G1 F1800 X124.402 Y107.431 E13.02015
G0 F3600 X123.836 Y107.431
G1 F1800 X124.968 Y108.563 E13.0734
G0 F3600 X124.317 Y108.478
G1 F1800 X123.27 Y107.431 E13.12265
G0 F3600 X122.704 Y107.431
G1 F1800 X123.484 Y108.21 E13.15931
G1 X123.554 Y108.28
G0 F3600 X128.181 Y106.678
G0 X128.181 Y103.322
G0 X127.784 Y102.77
G1 F1800 X122.202 Y102.77 E13.34497
G1 X121.925 Y102.829 E13.35439
G1 X122.108 Y102.589 E13.36443
G1 X122.652 Y102.057 E13.38973
G1 X123.301 Y101.641 E13.41537
G1 X123.619 Y101.496 E13.427
G1 X124.341 Y101.295 E13.45193
G1 X125.092 Y101.238 E13.47698
G1 X125.846 Y101.335 E13.50226
G1 X126.552 Y101.571 E13.52702
G1 X127.201 Y101.948 E13.55198
G1 X127.77 Y102.449 E13.5772
G1 X128.074 Y102.859 E13.59417
G1 X127.784 Y102.77 E13.60426
G0 F3600 X127.46 Y102.57
G1 F1800 X126.888 Y101.998 E13.63117
G0 F3600 X126.894 Y102.57
G1 F1800 X125.883 Y101.558 E13.67875
G0 F3600 X125.215 Y101.456
G1 F1800 X126.328 Y102.57 E13.73112
G0 F3600 X125.763 Y102.57
G1 F1800 X124.665 Y101.471 E13.78279
G0 F3600 X124.176 Y101.549
G1 F1800 X125.197 Y102.57 E13.83082
G0 F3600 X124.631 Y102.57
G1 F1800 X123.733 Y101.672 E13.87306
G0 F3600 X123.346 Y101.85
