;FLAVOR:Marlin
;TIME:1120
;Filament used: 0.582735m
;Layer height: 0.15
;MINX:115.724
;MINY:95.718
;MINZ:0.2
;MAXX:134.276
;MAXY:114.282
;MAXZ:35
;Generated with Cura_SteamEngine 5.3.1
M82 ;absolute extrusion mode
G21 ; set units to millimeters
G90 ; use absolute positioning
M82 ; absolute extrusion mode
M104 S200 ; set extruder temp
M140 S60 ; set bed temp
M190 S60 ; wait for bed temp
M109 S200 ; wait for extruder temp
G28 W ; home all without mesh bed level
G80 ; mesh bed leveling
G92 E0.0 ; reset extruder distance position
G1 Y-3.0 F1000.0 ; go outside print area
G1 X60.0 E9.0 F1000.0 ; intro line
G1 X100.0 E21.5 F1000.0 ; intro line
G92 E0.0 ; reset extruder distance position
G92 E0
G92 E0
G1 F2100 E-0.8
;LAYER_COUNT:233
;LAYER:0
M107
G0 F3600 X118.892 Y100.343 Z0.2
;TYPE:SKIRT
G1 F2100 E0
G1 F1800 X119.656 Y99.46 E0.03884
G1 X120.629 Y98.677 E0.08038
G1 X121.193 Y98.331 E0.10238
G1 X122.141 Y97.859 E0.13761
G1 X123.058 Y97.555 E0.16974
G1 X124.162 Y97.363 E0.20701
G1 X125.099 Y97.318 E0.23821
G1 X125.585 Y97.345 E0.2544
G1 X126.568 Y97.476 E0.28738
G1 X127.182 Y97.636 E0.30849
G1 X127.954 Y97.909 E0.33572
G1 X128.409 Y98.117 E0.35236
G1 X129.067 Y98.467 E0.37715
G1 X129.996 Y99.159 E0.41568
G1 X130.475 Y99.613 E0.43763
G1 X131.025 Y100.235 E0.46524
G1 X131.574 Y101.023 E0.49719
G1 X131.82 Y101.475 E0.5143
G1 X132.182 Y102.291 E0.54399
G1 X132.463 Y103.171 E0.57472
G1 X132.559 Y103.655 E0.59113
G1 X132.676 Y104.642 E0.62419
G1 X132.676 Y105.251 E0.64444
G1 X132.602 Y106.107 E0.67302
G1 X132.363 Y107.245 E0.71169
G1 X131.886 Y108.413 E0.75366
G1 X131.586 Y108.951 E0.77415
G1 X131.108 Y109.657 E0.8025
G1 X130.479 Y110.384 E0.83448
G1 X130.124 Y110.717 E0.85067
G1 X129.357 Y111.331 E0.88334
G1 X128.837 Y111.654 E0.9037
G1 X127.92 Y112.119 E0.9379
G1 X126.945 Y112.444 E0.97208
G1 X125.838 Y112.637 E1.00946
G1 X124.901 Y112.682 E1.04066
G1 X124.415 Y112.655 E1.05685
G1 X123.432 Y112.524 E1.08983
G1 X122.818 Y112.364 E1.11094
G1 X122.046 Y112.091 E1.13817
G1 X121.591 Y111.883 E1.15481
G1 X120.934 Y111.533 E1.17957
G1 X120.001 Y110.838 E1.21826
G1 X119.526 Y110.388 E1.24003
G1 X118.973 Y109.763 E1.26778
G1 X118.426 Y108.977 E1.29963
G1 X118.179 Y108.523 E1.31682
G1 X117.815 Y107.701 E1.34672
G1 X117.476 Y106.64 E1.38377
G1 X117.324 Y105.367 E1.42641
G1 X117.324 Y104.74 E1.44727
G1 X117.399 Y103.89 E1.47565
G1 X117.637 Y102.756 E1.51419
G1 X118.114 Y101.587 E1.55618
G1 X118.414 Y101.049 E1.57667
G1 X118.892 Y100.343 E1.60502
G0 F3600 X118.59 Y100.081
G1 F1800 X119.38 Y99.169 E1.64516
G1 X120.378 Y98.365 E1.68778
G1 X120.984 Y97.99 E1.71148
G1 X122.015 Y97.479 E1.74975
G1 X122.932 Y97.175 E1.78189
G1 X124.143 Y96.963 E1.82278
G1 X125.08 Y96.918 E1.85398
G1 X125.638 Y96.949 E1.87257
G1 X126.669 Y97.089 E1.90717
G1 X127.283 Y97.249 E1.92828
G1 X128.12 Y97.545 E1.9578
G1 X128.597 Y97.764 E1.97526
G1 X129.306 Y98.146 E2.00205
G1 X130.235 Y98.838 E2.04058
G1 X130.775 Y99.348 E2.06528
G1 X131.325 Y99.97 E2.0929
G1 X131.902 Y100.794 E2.12635
G1 X132.186 Y101.313 E2.14603
G1 X132.548 Y102.129 E2.17572
G1 X132.844 Y103.049 E2.20787
G1 X132.956 Y103.608 E2.22683
G1 X133.076 Y104.642 E2.26145
G1 X133.075 Y105.285 E2.28284
G1 X133.001 Y106.141 E2.31141
G1 X132.746 Y107.363 E2.35293
G1 X132.235 Y108.608 E2.39769
G1 X131.935 Y109.146 E2.41818
G1 X131.41 Y109.919 E2.44926
G1 X130.753 Y110.676 E2.4826
G1 X130.398 Y111.009 E2.49879
G1 X129.568 Y111.671 E2.5341
G1 X129.018 Y112.011 E2.55561
G1 X128.101 Y112.476 E2.5898
G1 X127.014 Y112.838 E2.62791
G1 X125.857 Y113.037 E2.66696
G1 X124.92 Y113.082 E2.69816
G1 X124.362 Y113.051 E2.71674
G1 X123.331 Y112.911 E2.75135
G1 X122.717 Y112.751 E2.77245
G1 X121.88 Y112.455 E2.80198
G1 X121.403 Y112.236 E2.81944
G1 X120.695 Y111.854 E2.8462
G1 X119.762 Y111.159 E2.88489
G1 X119.226 Y110.653 E2.90941
G1 X118.673 Y110.028 E2.93716
G1 X118.075 Y109.168 E2.972
G1 X117.813 Y108.685 E2.99028
G1 X117.449 Y107.863 E3.02018
G1 X117.084 Y106.727 E3.05987
G1 X116.924 Y105.367 E3.10541
G1 X116.924 Y104.74 E3.12627
G1 X117.008 Y103.808 E3.15739
G1 X117.254 Y102.637 E3.19719
G1 X117.765 Y101.392 E3.24195
G1 X118.065 Y100.854 E3.26244
G1 X118.59 Y100.081 E3.29352
G0 F3600 X118.259 Y99.856
G1 F1800 X119.1 Y98.881 E3.33634
G1 X120.127 Y98.054 E3.3802
G1 X120.806 Y97.632 E3.40679
G1 X121.889 Y97.099 E3.44693
G1 X122.806 Y96.795 E3.47907
G1 X124.124 Y96.563 E3.52358
G1 X125.061 Y96.518 E3.55478
G1 X125.692 Y96.553 E3.5758
G1 X126.77 Y96.702 E3.61199
G1 X127.384 Y96.862 E3.6331
G1 X128.287 Y97.181 E3.66495
G1 X128.764 Y97.4 E3.68241
G1 X129.545 Y97.825 E3.71198
G1 X130.51 Y98.547 E3.75206
G1 X131.075 Y99.083 E3.77797
G1 X131.625 Y99.705 E3.80558
G1 X132.253 Y100.602 E3.842
G1 X132.552 Y101.151 E3.86279
G1 X132.929 Y102.006 E3.89387
G1 X133.225 Y102.926 E3.92602
G1 X133.348 Y103.529 E3.94649
G1 X133.476 Y104.643 E3.98378
G1 X133.474 Y105.319 E4.00627
G1 X133.393 Y106.223 E4.03645
G1 X133.131 Y107.478 E4.07909
G1 X132.605 Y108.76 E4.12518
G1 X132.266 Y109.371 E4.14842
G1 X131.741 Y110.144 E4.1795
G1 X131.027 Y110.968 E4.21577
G1 X130.672 Y111.301 E4.23196
G1 X129.817 Y111.984 E4.26835
G1 X129.199 Y112.368 E4.29255
G1 X128.227 Y112.856 E4.32873
G1 X127.14 Y113.218 E4.36683
G1 X125.876 Y113.437 E4.4095
G1 X124.939 Y113.482 E4.4407
G1 X124.308 Y113.447 E4.46172
G1 X123.23 Y113.298 E4.49792
G1 X122.616 Y113.138 E4.51902
G1 X121.713 Y112.819 E4.55087
G1 X121.236 Y112.6 E4.56833
G1 X120.456 Y112.175 E4.59787
G1 X119.487 Y111.45 E4.63812
G1 X118.926 Y110.918 E4.66384
G1 X118.373 Y110.293 E4.6916
G1 X117.723 Y109.359 E4.72944
G1 X117.461 Y108.876 E4.74772
G1 X117.083 Y108.025 E4.77869
G1 X116.692 Y106.814 E4.82102
G1 X116.524 Y105.367 E4.86947
G1 X116.524 Y104.74 E4.89032
G1 X116.61 Y103.772 E4.92264
G1 X116.871 Y102.517 E4.96528
G1 X117.395 Y101.24 E5.01119
G1 X117.734 Y100.629 E5.03443
G1 X118.259 Y99.856 E5.06551
G0 F3600 X117.928 Y99.631
G1 F1800 X118.822 Y98.59 E5.11115
G1 X119.876 Y97.742 E5.15614
G1 X120.629 Y97.273 E5.18565
G1 X121.763 Y96.719 E5.22762
G1 X122.68 Y96.415 E5.25975
G1 X124.105 Y96.163 E5.30789
G1 X125.042 Y96.118 E5.33909
G1 X125.747 Y96.157 E5.36257
G1 X126.871 Y96.315 E5.40032
G1 X127.485 Y96.475 E5.42143
G1 X128.454 Y96.817 E5.4556
G1 X128.931 Y97.036 E5.47306
G1 X129.785 Y97.505 E5.50547
G1 X130.75 Y98.227 E5.54555
G1 X131.375 Y98.818 E5.57416
G1 X131.925 Y99.44 E5.60178
G1 X132.581 Y100.373 E5.63971
G1 X132.918 Y100.99 E5.66309
G1 X133.31 Y101.883 E5.69553
G1 X133.606 Y102.803 E5.72768
G1 X133.74 Y103.449 E5.74962
G1 X133.876 Y104.644 E5.78962
G1 X133.874 Y105.32 E5.81211
G1 X133.785 Y106.305 E5.845
G1 X133.516 Y107.594 E5.8888
G1 X132.955 Y108.954 E5.93773
G1 X132.597 Y109.596 E5.96218
G1 X132.072 Y110.369 E5.99325
G1 X131.301 Y111.26 E6.03244
G1 X130.922 Y111.614 E6.04969
G1 X130.067 Y112.297 E6.08609
G1 X129.41 Y112.708 E6.11187
G1 X128.353 Y113.236 E6.15116
G1 X127.266 Y113.598 E6.18927
G1 X125.895 Y113.837 E6.23556
G1 X124.958 Y113.882 E6.26676
G1 X124.253 Y113.843 E6.29024
G1 X123.129 Y113.685 E6.32799
G1 X122.515 Y113.525 E6.3491
G1 X121.546 Y113.183 E6.38328
G1 X121.069 Y112.964 E6.40073
G1 X120.216 Y112.495 E6.43311
G1 X119.247 Y111.77 E6.47336
G1 X118.626 Y111.183 E6.50178
G1 X118.073 Y110.558 E6.52954
G1 X117.371 Y109.55 E6.57039
G1 X117.109 Y109.067 E6.58867
G1 X116.702 Y108.148 E6.6221
G1 X116.3 Y106.903 E6.66561
G1 X116.124 Y105.367 E6.71703
G1 X116.124 Y104.74 E6.73789
G1 X116.218 Y103.691 E6.77292
G1 X116.486 Y102.4 E6.81677
G1 X117.045 Y101.046 E6.86549
G1 X117.403 Y100.404 E6.88994
G1 X117.928 Y99.631 E6.92102
G0 F3600 X117.597 Y99.406
G1 F1800 X118.544 Y98.3 E6.96945
G1 X119.625 Y97.43 E7.0156
G1 X120.418 Y96.933 E7.04673
G1 X121.637 Y96.339 E7.09183
G1 X122.554 Y96.035 E7.12396
G1 X124.086 Y95.763 E7.17571
G1 X125.023 Y95.718 E7.20691
G1 X125.803 Y95.761 E7.2329
G1 X126.972 Y95.928 E7.27217
G1 X127.586 Y96.088 E7.29328
G1 X128.621 Y96.453 E7.32978
G1 X129.124 Y96.685 E7.3482
G1 X129.978 Y97.154 E7.38061
G1 X131.025 Y97.936 E7.42407
G1 X131.675 Y98.553 E7.45388
G1 X132.225 Y99.175 E7.4815
G1 X132.932 Y100.181 E7.52239
G1 X133.269 Y100.798 E7.54578
G1 X133.691 Y101.76 E7.58071
G1 X133.987 Y102.68 E7.61286
G1 X134.132 Y103.368 E7.63624
G1 X134.276 Y104.645 E7.67899
G1 X134.274 Y105.321 E7.70147
G1 X134.177 Y106.387 E7.73707
G1 X133.901 Y107.712 E7.78209
G1 X133.325 Y109.107 E7.83229
G1 X132.928 Y109.821 E7.85946
G1 X132.403 Y110.594 E7.89054
G1 X131.603 Y111.522 E7.93129
G1 X131.172 Y111.927 E7.95096
G1 X130.317 Y112.61 E7.98736
G1 X129.589 Y113.066 E8.01593
G1 X128.479 Y113.616 E8.05713
G1 X127.392 Y113.978 E8.09524
G1 X125.914 Y114.237 E8.14514
G1 X124.977 Y114.282 E8.17634
G1 X124.197 Y114.239 E8.20233
G1 X123.028 Y114.072 E8.2416
G1 X122.414 Y113.912 E8.26271
G1 X121.379 Y113.547 E8.29921
G1 X120.876 Y113.315 E8.31763
G1 X120.023 Y112.846 E8.35001
G1 X118.972 Y112.061 E8.39364
G1 X118.326 Y111.448 E8.42326
G1 X117.773 Y110.823 E8.45101
G1 X117.019 Y109.741 E8.49488
G1 X116.757 Y109.258 E8.51315
G1 X116.321 Y108.271 E8.54904
G1 X115.908 Y106.991 E8.59378
G1 X115.724 Y105.367 E8.64814
G1 X115.724 Y104.74 E8.66899
G1 X115.826 Y103.61 E8.70673
G1 X116.102 Y102.281 E8.75187
G1 X116.675 Y100.893 E8.80182
G1 X117.072 Y100.179 E8.82899
G1 X117.597 Y99.406 E8.86007
G1 F2100 E8.06007
G0 F3600 X125.349 Y104.41
;TYPE:SUPPORT
G1 F2100 E8.86007
G1 F1800 X125.349 Y105.59 E8.89932
G1 F2100 E8.09932
;MESH:Connector V1 90.stl
G0 F3600 X125.349 Y106.65
G0 X127.75 Y107.15
G0 X127.75 Y106.851
;TYPE:WALL-INNER
G1 F2100 E8.89932
G1 F1800 X122.25 Y106.85 E9.08225
G1 F1541.8 X121.804 Y106.748 E9.10001
G1 F1194 X121.632 Y106.65 E9.10994
G1 X121.651 Y106.857 E9.12036
G1 F1541.8 X121.78 Y107.197 E9.13448
G1 F1800 X122.31 Y107.818 E9.16164
G1 X122.955 Y108.317 E9.18876
G1 X123.265 Y108.491 E9.20058
G1 X124.022 Y108.773 E9.22745
G1 X124.807 Y108.894 E9.25387
G1 X125.189 Y108.894 E9.26657
G1 X125.983 Y108.772 E9.29329
G1 X126.343 Y108.66 E9.30583
G1 X127.049 Y108.314 E9.33198
G1 X127.697 Y107.812 E9.35924
G1 F1659 X127.995 Y107.499 E9.37484
G1 F1428.6 X128.35 Y106.848 E9.40592
G1 F1198 X128.366 Y106.652 E9.41574
G1 X128.203 Y106.744 E9.4251
G1 F1535.2 X127.75 Y106.851 E9.44325
G0 F3600 X127.75 Y107.15
G0 X128.65 Y105.002
G0 X128.386 Y105.002
G1 F1555.1 X128.36 Y106.054 E9.48376
G1 F1302 X128.421 Y106.538 E9.50619
G1 F1323.5 X128.703 Y106.158 E9.5276
G1 F1659 X128.798 Y105.794 E9.54117
G1 F1589.4 X128.861 Y105.002 E9.5711
G1 F1585.9 X128.8 Y104.215 E9.6009
G1 F1582.4 X128.682 Y103.847 E9.61552
G1 F1263.2 X128.466 Y103.582 E9.63172
G1 F1265.4 X128.362 Y104.009 E9.65252
G1 F1522.2 X128.386 Y105.002 E9.69158
G0 F3600 X128.65 Y105.002
G0 X128.178 Y103.322
G0 X121.822 Y103.322
G0 X121.35 Y104.998
G0 X121.614 Y104.998
G1 F1519 X121.639 Y104.008 E9.73061
G1 F1258.7 X121.534 Y103.58 E9.75157
G1 F1256.5 X121.321 Y103.839 E9.76755
G1 F1582.4 X121.202 Y104.206 E9.78215
G1 F1589.4 X121.139 Y104.998 E9.81207
G1 F1585.9 X121.2 Y105.785 E9.84187
G1 F1655.2 X121.294 Y106.149 E9.85547
G1 F1316.3 X121.578 Y106.536 E9.8773
G1 F1292.6 X121.641 Y106.05 E9.9
G1 F1555.1 X121.614 Y104.998 E9.94052
G0 F3600 X121.35 Y104.998
G0 X121.774 Y103.49
G0 X121.826 Y103.287
G1 F1686.2 X122.25 Y103.15 E9.95634
G1 F1800 X127.75 Y103.149 E10.13927
G1 X127.928 Y103.176 E10.14525
G1 F1702.1 X128.166 Y103.285 E10.15446
G1 F1309.1 X128.422 Y103.464 E10.16875
G1 X128.39 Y103.125 E10.18432
G1 F1702.1 X128.207 Y102.785 E10.1979
G1 F1800 X127.69 Y102.182 E10.22432
G1 X127.045 Y101.683 E10.25144
G1 X126.735 Y101.509 E10.26327
G1 X125.978 Y101.228 E10.29012
G1 X125.193 Y101.107 E10.31654
G1 X124.811 Y101.106 E10.32925
G1 X124.017 Y101.228 E10.35596
G1 X123.657 Y101.34 E10.3685
G1 X122.951 Y101.686 E10.39465
G1 X122.303 Y102.187 E10.4219
G1 F1743.3 X122.03 Y102.473 E10.43547
G1 F1632.7 X121.611 Y103.135 E10.4642
G1 F1292.6 X121.579 Y103.462 E10.47942
G1 X121.826 Y103.287 E10.49344
G0 F3600 X122.035 Y102.904
G0 X121.439 Y105.927
G0 X122.05 Y106.309
;TYPE:WALL-OUTER
G1 F1800 X122.055 Y103.703 E10.58012
G1 X122.114 Y103.602 E10.58401
G1 X122.25 Y103.55 E10.58885
G1 X127.795 Y103.549 E10.77328
G1 F1804.5 X127.883 Y103.601 E10.77667
G1 X127.946 Y103.704 E10.78067
G1 F1800 X127.949 Y106.31 E10.86735
G1 X127.886 Y106.398 E10.87095
G1 X127.75 Y106.451 E10.8758
G1 X122.206 Y106.45 E11.0602
G1 X122.05 Y106.309 E11.06719
G0 F3600 X122.05 Y106.109
G0 X121.439 Y105.927
G0 X121.822 Y106.678
G0 X125.159 Y108.595
G0 X125.219 Y109.294
G1 F1800 X126.073 Y109.163 E11.09593
G1 X126.491 Y109.033 E11.11049
G1 X127.261 Y108.655 E11.13902
G1 X127.965 Y108.11 E11.16863
G1 X128.255 Y107.806 E11.1826
G1 X128.759 Y107.086 E11.21184
G1 X129.099 Y106.293 E11.24053
G1 X129.21 Y105.869 E11.25511
G1 X129.299 Y105.002 E11.2841
G1 X129.212 Y104.141 E11.31288
G1 X129.102 Y103.716 E11.32748
G1 F1804.5 X128.763 Y102.919 E11.35622
G1 X128.531 Y102.547 E11.37076
G1 F1800 X127.967 Y101.89 E11.39956
G1 X127.267 Y101.349 E11.42899
G1 X126.903 Y101.145 E11.44286
G1 X126.079 Y100.838 E11.47211
G1 X125.223 Y100.707 E11.50091
G1 X124.781 Y100.706 E11.51561
G1 X123.927 Y100.837 E11.54435
G1 X123.509 Y100.967 E11.55891
G1 X122.739 Y101.345 E11.58744
G1 X122.035 Y101.889 E11.61703
G1 X121.745 Y102.193 E11.63101
G1 X121.241 Y102.914 E11.66026
G1 F1804.5 X120.9 Y103.706 E11.68887
G1 X120.79 Y104.131 E11.70344
G1 F1800 X120.701 Y104.998 E11.73243
G1 X120.788 Y105.859 E11.76121
G1 X120.898 Y106.284 E11.77581
G1 F1804.5 X121.237 Y107.081 E11.80454
G1 X121.467 Y107.451 E11.819
G1 F1800 X122.033 Y108.11 E11.84789
G1 X122.733 Y108.651 E11.87732
G1 X123.097 Y108.855 E11.89119
G1 X123.921 Y109.162 E11.92044
G1 X124.777 Y109.294 E11.94925
G1 X125.219 Y109.294 E11.96395
G0 F3600 X125.416 Y109.264
G0 X125.167 Y108.514
;TYPE:SKIN
G1 F1800 X124.832 Y108.514 E11.97509
G1 X124.122 Y108.404 E11.99899
G1 X123.425 Y108.144 E12.02373
G1 X123.169 Y107.999 E12.03352
G1 X122.571 Y107.538 E12.05863
G1 X122.307 Y107.231 E12.0721
G1 X127.705 Y107.232 E12.25163
G1 X127.453 Y107.515 E12.26424
G1 X126.838 Y107.994 E12.29017
G1 X126.204 Y108.306 E12.31367
G1 X125.892 Y108.402 E12.32452
G1 X125.167 Y108.514 E12.34892
G0 F3600 X123.271 Y107.432
G1 F1800 X123.973 Y108.134 E12.38194
G0 F3600 X123.837 Y107.432
G1 F1800 X124.694 Y108.289 E12.42226
G0 F3600 X125.266 Y108.295
G1 F1800 X124.402 Y107.432 E12.46287
G0 F3600 X124.968 Y107.432
G1 F1800 X125.756 Y108.22 E12.49994
G0 F3600 X126.19 Y108.089
G1 F1800 X125.534 Y107.432 E12.53082
G0 F3600 X126.099 Y107.432
G1 F1800 X126.569 Y107.901 E12.5529
G0 F3600 X126.913 Y107.68
G1 F1800 X126.665 Y107.432 E12.56457
G0 F3600 X128.178 Y106.678
G0 X128.178 Y103.322
G0 X127.693 Y102.768
G1 F1800 X122.294 Y102.77 E12.74414
G1 X122.555 Y102.476 E12.75721
G1 X123.162 Y102.006 E12.78275
G1 X123.796 Y101.694 E12.80625
G1 X124.108 Y101.598 E12.81711
G1 X124.832 Y101.487 E12.84147
G1 X125.168 Y101.488 E12.85264
G1 X125.878 Y101.597 E12.87653
G1 X126.575 Y101.856 E12.90127
G1 X126.828 Y101.999 E12.91093
G1 X127.432 Y102.466 E12.93632
G1 X127.693 Y102.768 E12.9496
G0 F3600 X126.892 Y102.567
G1 F1800 X126.287 Y101.962 E12.97806
G0 F3600 X126.326 Y102.567
G1 F1800 X125.5 Y101.742 E13.01689
G0 F3600 X124.88 Y101.687
G1 F1800 X125.761 Y102.567 E13.0583
G0 F3600 X125.195 Y102.567
G1 F1800 X124.385 Y101.757 E13.0964
G0 F3600 X123.926 Y101.864
G1 F1800 X124.63 Y102.568 E13.12952
G0 F3600 X124.064 Y102.568
G1 F1800 X123.54 Y102.043 E13.15419
G0 F3600 X123.178 Y102.247
G1 F1800 X123.499 Y102.568 E13.16929
G0 F3600 X122.933 Y102.568
G1 F1800 X122.858 Y102.493 E13.17281
M104 S200
G0 F3600 X122.867 Y102.507
G1 F2100 E12.37281
;MESH:NONMESH
G0 F600 X122.867 Y102.507 Z0.35
G0 F3600 X125.349 Y103.35
G0 X125.349 Y105.35
;TIME_ELAPSED:21.063096
;LAYER:1
M106 S255
;TYPE:SUPPORT
G1 F2100 E13.17281
G1 F2700 X123.15 Y105.35 E13.22767
G1 X123.15 Y104.65 E13.24513
G1 X125.349 Y104.65 E13.29998
G1 X126.85 Y104.65 E13.33743
G1 X126.85 Y105.35 E13.35489
G1 X125.349 Y105.35 E13.39233
G1 X125.349 Y104.65 E13.40979
G1 F2100 E12.60979
;MESH:Connector V1 90.stl
G0 F5400 X125.349 Y103.35
G0 X127.87 Y102.85
G0 X127.87 Y103.15
;TYPE:WALL-INNER
G1 F2100 E13.40979
G1 F3120.6 X128.164 Y103.284 E13.41832
